!!!!SEGMENT: pl-wtm--r-692-m--003_moniuszko-stanislaw--sonety-krymskie-noc.krn
!!!cenid: 18xx:2929
!!!COM: Moniuszko, Stanisław
!!!COM-rismID:
!!!CDT: 1819/05/05-1872/06/04
!!!CNT: Polish
!!!GTL: Sonety krymskie
!!!OTL: Noc
!!!PDT:
!!!AGN: Secular; Sonnet
!!!SMS-siglum: PL-Wtm
!!!SMS-shelfmark: R 692/M
!!!SMS-shelfwork: 003 G
!!!SMS-variant:
!!!SMS-altvar:
!!!NIFC-rismSourceID: 1001095951
!!!NIFC-islandoraID:
!!!URL-pdf-islandora:
!!!URL-scan:
!!!ONB-nifc: UWAGA: zbiór zawiera: 1. Burza, 2. Ruiny, 3. Noc, 4. Hymn Czatyrdah, 5. Ostatni sonet
!!!AIN: 1 alto 1 bass 2 piano 1 soprn 1 tenor
!!!key: D-
!!!OMD: Andantino
**kern	**kern	**dynam	**kern	**text	**dynam	**kern	**text	**dynam	**kern	**text	**dynam	**kern	**text	**dynam
*part6	*part5	*part5	*part4	*part4	*part4	*part3	*part3	*part3	*part2	*part2	*part2	*part1	*part1	*part1
*staff6	*staff5	*	*staff4	*staff4	*	*staff3	*staff3	*	*staff2	*staff2	*	*staff1	*staff1	*
*I"	*I"	*	*I"	*	*	*I"	*	*	*I"	*	*	*I"	*	*
*Ipiano	*Ipiano	*	*Ibass	*	*	*Itenor	*	*	*Ialto	*	*	*Isoprn	*	*
*ICklav	*ICklav	*	*ICvox	*	*	*ICvox	*	*	*ICvox	*	*	*ICvox	*	*
*IGacmp	*IGacmp	*	*IGcoro	*	*	*IGcoro	*	*	*IGcoro	*	*	*IGcoro	*	*
*>[A,B,B1,B,B2,C,D,D1,D,D2,E]	*>[A,B,B1,B,B2,C,D,D1,D,D2,E]	*>[A,B,B1,B,B2,C,D,D1,D,D2,E]	*>[A,B,B1,B,B2,C,D,D1,D,D2,E]	*>[A,B,B1,B,B2,C,D,D1,D,D2,E]	*>[A,B,B1,B,B2,C,D,D1,D,D2,E]	*>[A,B,B1,B,B2,C,D,D1,D,D2,E]	*>[A,B,B1,B,B2,C,D,D1,D,D2,E]	*>[A,B,B1,B,B2,C,D,D1,D,D2,E]	*>[A,B,B1,B,B2,C,D,D1,D,D2,E]	*>[A,B,B1,B,B2,C,D,D1,D,D2,E]	*>[A,B,B1,B,B2,C,D,D1,D,D2,E]	*>[A,B,B1,B,B2,C,D,D1,D,D2,E]	*>[A,B,B1,B,B2,C,D,D1,D,D2,E]	*>[A,B,B1,B,B2,C,D,D1,D,D2,E]
*clefF4	*clefG2	*	*clefF4	*	*	*clefGv2	*	*	*clefG2	*	*	*clefG2	*	*
*k[b-e-a-d-g-]	*k[b-e-a-d-g-]	*	*k[b-e-a-d-g-]	*	*	*k[b-e-a-d-g-]	*	*	*k[b-e-a-d-g-]	*	*	*k[b-e-a-d-g-]	*	*
*D-:	*D-:	*	*D-:	*	*	*D-:	*	*	*D-:	*	*	*D-:	*	*
*M6/8	*M6/8	*	*M6/8	*	*	*M6/8	*	*	*M6/8	*	*	*M6/8	*	*
*>A	*>A	*>A	*>A	*>A	*>A	*>A	*>A	*>A	*>A	*>A	*>A	*>A	*>A	*>A
=1	=1	=1	=1	=1	=1	=1	=1	=1	=1	=1	=1	=1	=1	=1
*^	*	*	*	*	*	*	*	*	*	*	*	*	*	*
*2\right	*	*	*	*	*	*	*	*	*	*	*	*	*	*	*
!	!	!	!	!	!	!	!	!	!	!LO:TX:a:t=P:problem:w Alcie i Tenorze pochyła kreska zamiast oznaczeń klucza, znaków przykluczowych i metrum	!	!	!LO:TX:a:t=P:problem:"Andantino".color=dodgerblue	!	!
!	!	!	!LO:DY:color=dodgerblue	!	!	!	!	!	!	!LO:TX:a:t=P:problem:w t. 1-2 pauza w kolorze dodgerblue, kolor nie wyświetla się. Także w Tenorze	!	!	!LO:TX:a:t=P:problem:pauza w kolorze dodgerblue, kolor nie wyświetla się. Także w Basie	!	!
!LO:TX:a:t=P:problem:all\right	!	!LO:TX:a:t=P:problem:most\right, some \left and \middle	!	!LO:TX:a:t=P:problem:all\right	!	!	!LO:TX:a:t=P:problem:all\right	!	!	!LO:TX:a:t=P:problem:all\right	!	!	!LO:TX:a:t=P:problem:all\right	!	!
8DD-/	2.DD-\	2.r	p	2.r@	.	.	2.r@	.	.	2.r@	.	.	2.r@	.	.
8AA-^</L	.	.	.	.	.	.	.	.	.	.	.	.	.	.	.
8D-|</J	.	.	.	.	.	.	.	.	.	.	.	.	.	.	.
8A-^</L	.	.	.	.	.	.	.	.	.	.	.	.	.	.	.
8D-|</	.	.	.	.	.	.	.	.	.	.	.	.	.	.	.
8AA-^</J	.	.	.	.	.	.	.	.	.	.	.	.	.	.	.
=2	=2	=2	=2	=2	=2	=2	=2	=2	=2	=2	=2	=2	=2	=2	=2
*rep	*rep	*	*	*	*	*	*	*	*	*	*	*	*	*	*
!	!	!	!	!	!	!	!	!	!	!	!	!	!LO:TX:a:t=P:problem:w tym i kolejnym takcie brak nut oznaczony delikatną kropką w kolorze dodgerblue, także w Basso	!	!
8DD-/	2.DD-\	2.r	.	2.r	.	.	2.r@	.	.	2.r@	.	.	2.ryy	.	.
8AA-^</L	.	.	.	.	.	.	.	.	.	.	.	.	.	.	.
8D-|</J	.	.	.	.	.	.	.	.	.	.	.	.	.	.	.
8A-^</L	.	.	.	.	.	.	.	.	.	.	.	.	.	.	.
!	!	!	!LO:DY:color=dodgerblue	!	!	!	!	!	!	!	!	!	!	!	!
8D-|</	.	.	pp	.	.	.	.	.	.	.	.	.	.	.	.
8AA-^</J	.	.	.	.	.	.	.	.	.	.	.	.	.	.	.
*Xrep	*Xrep	*	*	*	*	*	*	*	*	*	*	*	*	*	*
=3	=3	=3	=3	=3	=3	=3	=3	=3	=3	=3	=3	=3	=3	=3	=3
*	*	*^	*	*	*	*	*	*	*	*	*	*	*	*	*
*	*	*2\right	*	*	*	*	*	*	*	*	*	*	*	*	*	*
*rep	*rep	*	*	*	*	*	*	*	*	*	*	*	*	*	*	*
!	!	!LO:TX:b:t=molto dolce:color=dodgerblue	!	!	!	!	!	!LO:TX:a:t=P:problem:pauza prawie niewidoczna, także w Basie	!	!	!	!	!	!LO:TX:a:t=P:problem:brak nut oznaczony bardzo delikatną kropką w kolorze dodgerblue, także w Alcie	!	!
8DD-/	2.DD-\	(4a-/	2.a-\	.	2.r	.	.	2.r@	.	.	2.ryy	.	.	2.ryy	.	.
8AA-^</L	.	.	.	.	.	.	.	.	.	.	.	.	.	.	.	.
8D-|</J	.	8aa-\	.	.	.	.	.	.	.	.	.	.	.	.	.	.
8A-^</L	.	8ff\L	.	.	.	.	.	.	.	.	.	.	.	.	.	.
8D-|</	.	8ee-\	.	.	.	.	.	.	.	.	.	.	.	.	.	.
8AA-^</J	.	8dd-\J	.	.	.	.	.	.	.	.	.	.	.	.	.	.
*Xrep	*Xrep	*	*	*	*	*	*	*	*	*	*	*	*	*	*	*
*	*	*v	*v	*	*	*	*	*	*	*	*	*	*	*	*	*
=4	=4	=4	=4	=4	=4	=4	=4	=4	=4	=4	=4	=4	=4	=4	=4
*	*	*	*	*2\right	*	*	*2\right	*	*	*	*	*	*	*	*
*rep	*rep	*	*	*	*	*	*	*	*	*	*	*	*	*	*
8DD-/	2.DD-\	[4.a-/)	.	4r	.	.	4r	.	.	4r	.	.	4r	.	.
8AA-^</L	.	.	.	.	.	.	.	.	.	.	.	.	.	.	.
8D-|</J	.	.	.	8r	.	.	8r	.	.	8r	.	.	8r	.	.
8A-^</L	.	4a-/]	.	4r	.	.	4r	.	.	4r	.	.	4r	.	.
8D-|</	.	.	.	.	.	.	.	.	.	.	.	.	.	.	.
!	!	!	!	!	!	!LO:DY:a:rj	!	!	!LO:DY:a:rj	!	!	!LO:DY:a:rj	!	!	!LO:DY:a:rj
8AA-^</J	.	8a-/ 8f/ 8d-/	.	8A-|\	.	pp	8d-|\	.	pp	8f|/	.	pp	8a-'/	Ros-	pp
*Xrep	*Xrep	*	*	*	*	*	*	*	*	*	*	*	*	*	*
=5	=5	=5	=5	=5	=5	=5	=5	=5	=5	=5	=5	=5	=5	=5	=5
*	*	*^	*	*	*	*	*	*	*	*	*	*	*	*	*
4AA-/	2.DD-\	4a-/	(>8f\L	.	4A-\	.	.	4d-\	.	.	4f/	.	.	4a-/	-cho-	.
.	.	.	8A-\)	.	.	.	.	.	.	.	.	.	.	.	.	.
8D-/	.	8a-/ 8f/	8d-\J	.	8A-\	.	.	8d-\	.	.	8f/	.	.	8a-/	-dz	.
8C/L	.	4a-/ 4g-/	8e-\L	.	4A-\	.	.	4c\	.	.	4e-/	.	.	4a-/ 4g-/	się	.
8BB-/	.	.	8A-\	.	.	.	.	.	.	.	.	.	.	.	.	.
8AA-/J	.	8a-/ 8g-/	8c\J	.	8A-\	.	.	8c\	.	.	8e-/	.	.	8a-/ 8g-/	z_dża-	.
=6	=6	=6	=6	=6	=6	=6	=6	=6	=6	=6	=6	=6	=6	=6	=6	=6
!	!	!	!	!	!	!	!	!	!	!	!	!	!	!LO:N:n=1:vis=4	!	!
2.F/ 2.DD-/	8r	4a-/ 4f/	4d-\	.	4.A-\	.	.	4.d-\	.	.	[4.d-/	.	.	[<4.a-/ 4.f/	-mi-	.
.	8AA-/L	.	.	.	.	.	.	.	.	.	.	.	.	.	.	.
.	8D-/J	(8A-/	2ryy	.	.	.	.	.	.	.	.	.	.	.	.	.
.	8A-/L	4d-/)	.	.	8A-\	.	.	8d-\	.	.	8d-/]	.	.	8a-/] 8f/	-dów	.
.	8D-/	.	.	.	8r	.	.	8r	.	.	8r	.	.	8r	.	.
.	8AA-/J	8a-/	.	.	8r	.	.	8r	.	.	8r	.	.	8r	.	.
*	*	*v	*v	*	*	*	*	*	*	*	*	*	*	*	*	*
=7	=7	=7	=7	=7	=7	=7	=7	=7	=7	=7	=7	=7	=7	=7	=7
8r	2.DD-/	(4a-/ 4f/ (4d-/	.	2.r	.	.	2.r	.	.	2.r	.	.	2.r	.	.
8AA-/L	.	.	.	.	.	.	.	.	.	.	.	.	.	.	.
8D-/J	.	8aa-\ 8a-\))	.	.	.	.	.	.	.	.	.	.	.	.	.
8A-/L	.	8ff\L	.	.	.	.	.	.	.	.	.	.	.	.	.
8D-/	.	8ee-\	.	.	.	.	.	.	.	.	.	.	.	.	.
8AA-/J	.	8dd-\J	.	.	.	.	.	.	.	.	.	.	.	.	.
=8	=8	=8	=8	=8	=8	=8	=8	=8	=8	=8	=8	=8	=8	=8	=8
*	*	*^	*	*	*	*	*	*	*	*	*	*	*	*	*
*rep	*rep	*	*	*	*	*	*	*	*	*	*	*	*	*	*	*
8r	2.DD-/	2a-/	(>4A-\	.	4r	.	.	4r	.	.	4r	.	.	4r	.	.
8AA-/L	.	.	.	.	.	.	.	.	.	.	.	.	.	.	.	.
8D-/J	.	.	8a-\	.	8r	.	.	8r	.	.	8r	.	.	8r	.	.
8A-/L	.	.	8f\L	.	4r	.	.	4r	.	.	4r	.	.	4r	.	.
8D-/	.	4ryy	8e-\	.	.	.	.	.	.	.	.	.	.	.	.	.
8AA-/J	.	.	8d-\J)	.	8A-\	.	.	8d-\	.	.	8f/	.	.	8a-/	po-	.
*Xrep	*Xrep	*	*	*	*	*	*	*	*	*	*	*	*	*	*	*
!!LO:LB:g=original
=9	=9	=9	=9	=9	=9	=9	=9	=9	=9	=9	=9	=9	=9	=9	=9	=9
4AA-/	(>2.DD-\	8A-/L	4A-\	.	4.A-\	.	.	4.d-\	.	.	4.f/	.	.	4.a-/	-boż-	.
.	.	8d-/	.	.	.	.	.	.	.	.	.	.	.	.	.	.
8F\	.	8f/J 8d-/	8ryy	.	.	.	.	.	.	.	.	.	.	.	.	.
8G-\L	.	4e-/	8c\L	.	4A-\	.	.	4c\	.	.	4e-/	.	.	4a-/ 4g-/	-ni	.
8F\	.	.	8A-\	.	.	.	.	.	.	.	.	.	.	.	.	.
8E-\J)	.	8g-/	8c\J	.	8A-\	.	.	8c\	.	.	8e-/	.	.	8a-/ 8g-/	miesz-	.
*	*	*v	*v	*	*	*	*	*	*	*	*	*	*	*	*	*
=10	=10	=10	=10	=10	=10	=10	=10	=10	=10	=10	=10	=10	=10	=10	=10
*	*^	*	*	*	*	*	*	*	*	*	*	*	*	*	*
8r	2.D-\	2.A-/	(4f/ 4d-/	.	8A-\	.	.	8d-\	.	.	8d-/	.	.	8a-/ 8f/	-kań-	.
!LO:TX:t=P:problem:mixed beam	!	!	!	!	!	!	!	!	!	!	!	!	!	!	!	!
(8F\L	.	.	.	.	8A-\	.	.	8d-\	.	.	8d-/	.	.	8a-/ 8f/	-ce	.
8AA-/J	.	.	8f/	.	8r	.	.	8r	.	.	8r	.	.	8r	.	.
!LO:TX:t=P:problem:mixed beam	!	!	!	!	!	!	!	!	!	!	!	!	!	!	!	!
8D-\L	.	.	8e-/L	.	4r	.	.	4r	.	.	4r	.	.	4r	.	.
8F\	.	.	8d-/	.	.	.	.	.	.	.	.	.	.	.	.	.
8AA-/J)	.	.	8c/J)	.	8r	.	.	8r	.	.	8r	.	.	8r	.	.
=11	=11	=11	=11	=11	=11	=11	=11	=11	=11	=11	=11	=11	=11	=11	=11	=11
*	*	*	*^	*	*	*	*	*	*	*	*	*	*	*	*	*
8r	2.DD-\	4.ryy	(4a-/ 4B-^/	4.B-\	.	2.r	.	.	2.r	.	.	2.r	.	.	2.r	.	.
!LO:TX:t=P:problem:mixed beam	!	!	!	!	!	!	!	!	!	!	!	!	!	!	!	!	!
(>8AA-/L	.	.	.	.	.	.	.	.	.	.	.	.	.	.	.	.	.
8F\J	.	.	8aa-\	.	.	.	.	.	.	.	.	.	.	.	.	.	.
!LO:TX:t=P:problem:mixed beam	!	!	!	!	!	!	!	!	!	!	!	!	!	!	!	!	!
8D-\L	.	4A-/)	8ff\L	4.ryy	.	.	.	.	.	.	.	.	.	.	.	.	.
8AA-/	.	.	8ee-\	.	.	.	.	.	.	.	.	.	.	.	.	.	.
8F\J	.	8ryy	8dd-\J)	.	.	.	.	.	.	.	.	.	.	.	.	.	.
*	*v	*v	*	*	*	*	*	*	*	*	*	*	*	*	*	*	*
=12	=12	=12	=12	=12	=12	=12	=12	=12	=12	=12	=12	=12	=12	=12	=12	=12
8r	2.DD-\	2.a-/	8r	.	4r	.	.	4r	.	.	4r	.	.	4r	.	.
!LO:TX:t=P:problem:mixed beam	!	!	!	!	!	!	!	!	!	!	!	!	!	!	!	!
(8AA-/L	.	.	(>8f\L	.	.	.	.	.	.	.	.	.	.	.	.	.
8F\J	.	.	8d-\J	.	8r	.	.	8r	.	.	8r	.	.	8r	.	.
!	!	!	!	!	!	!	!	!LO:TX:a:t=(x):problem:poprawione takty (do końca t. 16) dopisane na dole strony, z odnośnikiem	!	!	!	!	!	!	!	!
8G-\L	.	.	8B-\L	.	4r	.	.	4r	.	.	4r	.	.	4r	.	.
8F\	.	.	8d-\)	.	.	.	.	.	.	.	.	.	.	.	.	.
8E-\J)	.	.	8c\J	.	8A-\	.	.	8A-/	.	.	8f/	.	.	8a-/	i-	.
=13	=13	=13	=13	=13	=13	=13	=13	=13	=13	=13	=13	=13	=13	=13	=13	=13
4A-^</	2.D-\	8a-/L	4f\	.	4A-\	.	.	4A-/	.	.	4f/	.	.	4a-/	-za-	.
.	.	8dd-/	.	.	.	.	.	.	.	.	.	.	.	.	.	.
8d-/	.	8b-/J	8f\	.	8A-\	.	.	8d-\	.	.	8f/	.	.	8a-/	-nu	.
(<8c/L	.	4a-/ 4g-/ 4e-/	4.ryy	.	4A-\	.	.	8c\L	.	.	4e-/	.	.	4a-/ 4g-/	od-	.
8B-/)	.	.	.	.	.	.	.	8B-\J	.	.	.	.	.	.	.	.
N(>8A-/J	.	8a-/ 8g-/	.	.	8A-\	.	.	8A-/	.	.	8e-/	.	.	8a-/ 8g-/	-głos	.
=14	=14	=14	=14	=14	=14	=14	=14	=14	=14	=14	=14	=14	=14	=14	=14	=14
*	*^	*	*	*	*	*	*	*	*	*	*	*	*	*	*	*
8ryy	2.D-\	2.D-/	4a-/	4f\N)	.	4.A-\	.	.	4.A-/	.	.	4.d-/	.	.	4.a-/ 4.f/	w_ci-	.
8A-\|L	.	.	.	.	.	.	.	.	.	.	.	.	.	.	.	.	.
8D-\|J	.	.	8a-'/ 8f'/ 8d-'/	2ryy	.	.	.	.	.	.	.	.	.	.	.	.	.
(<8AA-/L	.	.	(>4dd-/ 4f/ 4d-/	.	.	8A-\	.	.	8A-/	.	.	8d-/	.	.	8a-/ 8f/	-chym	.
8D-/)	.	.	.	.	.	8r	.	.	8r	.	.	8r	.	.	8r	.	.
8A-/J	.	.	8a-/ 8f/ 8d-/)	.	.	8r	.	.	8r	.	.	8r	.	.	8r	.	.
*	*	*	*v	*v	*	*	*	*	*	*	*	*	*	*	*	*	*
*	*v	*v	*	*	*	*	*	*	*	*	*	*	*	*	*	*
=15	=15	=15	=15	=15	=15	=15	=15	=15	=15	=15	=15	=15	=15	=15	=15
!LO:N:vis=2	!	!	!	!	!	!	!	!	!	!	!	!	!	!	!
8D-/L	2.D-\	((4a-/ 4f/	.	2.r	.	.	2.r	.	.	2.r	.	.	2.r	.	.
(<8A-/	.	.	.	.	.	.	.	.	.	.	.	.	.	.	.
8d-/J	.	8aa-\ 8a-\)	.	.	.	.	.	.	.	.	.	.	.	.	.
8A-/L	.	8ff\L	.	.	.	.	.	.	.	.	.	.	.	.	.
8d-/	.	8ee-\	.	.	.	.	.	.	.	.	.	.	.	.	.
8A-/J)	.	[>8dd-\J	.	.	.	.	.	.	.	.	.	.	.	.	.
=16	=16	=16	=16	=16	=16	=16	=16	=16	=16	=16	=16	=16	=16	=16	=16
*	*^	*	*	*	*	*	*	*	*	*	*	*	*	*	*
*	*	*	*^	*	*	*	*	*	*	*	*	*	*	*	*	*
!	!	!	!	!	!	!LO:TX:a:t=P:problem:skreślone pauzy, brak informacji o poprawionych nutach/pauzach	!	!	!LO:TX:a:t=P:problem:pauza w kolorze dodgerblue	!	!	!	!	!	!	!	!
!	!	!LO:TX:a:t=P:problem:łuk nieprawidłowo się wyświetla	!	!	!	!	!	!	!	!	!	!	!	!	!	!	!
(8F\L 8D-\	2.D-\	N(>4d-/	[4.ddd-^/)	4dd-\]	.	2ryy	.	.	2.r@	.	.	2r@	.	.	2r@	.	.
8A-\	.	.	.	.	.	.	.	.	.	.	.	.	.	.	.	.	.
8F\J	.	2ryy	.	8dd-\N)	.	.	.	.	.	.	.	.	.	.	.	.	.
8A-\L	.	.	4ddd-/]	(>8cc\L	.	.	.	.	.	.	.	.	.	.	.	.	.
8F\	.	.	.	8b-\)	.	8ryy	.	.	.	.	.	8ryy	.	.	8ryy	.	.
8A-\J)	.	.	8ff/	8a-\J	.	8A-\	.	.	.	.	.	8a-@	.	.	8a-	.	.
*	*v	*v	*	*	*	*	*	*	*	*	*	*	*	*	*	*	*
!!LO:PB:g=original
=17	=17	=17	=17	=17	=17	=17	=17	=17	=17	=17	=17	=17	=17	=17	=17	=17
*	*	*	*^	*	*	*	*	*	*	*	*	*	*	*	*	*
!	!	!	!	!	!	!	!	!	!	!	!	!	!	!	!LO:N:vis=xstem	!	!
!	!	!LO:N:vis=1.	!	!	!	!	!	!	!	!	!	!	!	!	!	!	!
4A-/	2.D-\	(2.aa-/	8r	4.ryy	.	4.A-\	.	.	(4A-/	.	.	4.a-/	.	.	4a-/	gu-	.
.	.	.	8ee-\L	.	.	.	.	.	.	.	.	.	.	.	.	.	.
8f/	.	.	8cc\J	.	.	.	.	.	8f\	.	.	.	.	.	8dd-\	-bi	.
8g-/L	.	.	8b-\L	8b-/L	.	4A-\	.	.	8g-\L	.	.	8b-/L	.	.	4b-\	się	.
8f/	.	.	8a-\	8a-/	.	.	.	.	8f\J)	.	.	8a-/J	.	.	.	.	.
8e-/J	.	.	8g-\J	8cc/J 8g-/	.	8G-\	.	.	8e-\	.	.	8g-/	.	.	8cc\	wie-	.
*	*	*v	*v	*v	*	*	*	*	*	*	*	*	*	*	*	*	*
=18	=18	=18	=18	=18	=18	=18	=18	=18	=18	=18	=18	=18	=18	=18	=18
!	!	!	!	!LO:TX:a:t=P:problem:pierwsza 8A-\ wygląda na skreśloną	!	!	!	!	!	!	!	!	!	!	!
8d-/L	2.D-\	8aa-/L 8dd-/ 8f/)	.	8A-\	.	.	8d-\	.	.	8f/	.	.	8dd-\	-czo-	.
8A-/	.	8ff/ 8a-/	.	8A-\	.	.	8d-\	.	.	8f/	.	.	8a-/	-rze	.
8c/J	.	8ee-/J 8g-/	.	8r	.	.	8r	.	.	8r	.	.	8r	.	.
8A-/L	.	8dd-/L 8f/	.	4r	.	.	4r	.	.	4r	.	.	4r	.	.
8F/	.	8a-/ 8d-/	.	.	.	.	.	.	.	.	.	.	.	.	.
8G-/J	.	8b-/J 8d-/	.	8r	.	.	8r	.	.	8r	.	.	8r	.	.
*v	*v	*	*	*	*	*	*	*	*	*	*	*	*	*	*
=19!|:	=19!|:	=19!|:	=19!|:	=19!|:	=19!|:	=19!|:	=19!|:	=19!|:	=19!|:	=19!|:	=19!|:	=19!|:	=19!|:	=19!|:
*>B	*>B	*>B	*>B	*>B	*>B	*>B	*>B	*>B	*>B	*>B	*>B	*>B	*>B	*>B
!	!	!	!	!	!	!	!	!	!	!	!	!LO:TX:a:t=P:problem:repeat barline.color=dodgerblue:note=we wszystkich głosach	!	!
8AAA-/	4cc/ 4e-/ 4c/	.	2.r	.	.	4e-\	.	.	2.r	.	.	4cc\	[[błysz-	.
8G-/L 8E-/	.	.	.	.	.	.	.	.	.	.	.	.	.	.
8AA-/J	(8cc/ 8e-/	.	.	.	.	8e-\	.	.	.	.	.	8cc\	-czą	.
8G-/L 8E-/	8b-/L 8d-/	.	.	.	.	8d-\	.	.	.	.	.	8b-\	w_nie-	.
8AA-/	8cc/ 8e-/	.	.	.	.	8e-\	.	.	.	.	.	8cc\	-bios	.
8G-/J 8E-/	8b-/J 8d-/	.	.	.	.	8d-\	.	.	.	.	.	8b-\	ha-	.
=20	=20	=20	=20	=20	=20	=20	=20	=20	=20	=20	=20	=20	=20	=20
*rep	*	*	*	*	*	*	*	*	*	*	*	*	*	*
8AAA-/	4.b-/ 4.d-^/	.	2.r	.	.	4.d-\	.	.	2.r	.	.	4.b-\	-re-	.
8G-/L 8E-/	.	.	.	.	.	.	.	.	.	.	.	.	.	.
8AA-/J	.	.	.	.	.	.	.	.	.	.	.	.	.	.
!	!	!	!	!	!	!LO:N:vis=4	!	!	!	!	!	!	!	!
8G-/L 8E-/	4a-/ 4c/)	.	.	.	.	4.c\	.	.	.	.	.	4.a-\	-mie	.
8AA-/	.	.	.	.	.	.	.	.	.	.	.	.	.	.
8G-/J 8E-/	8r	.	.	.	.	.	.	.	.	.	.	.	.	.
*Xrep	*	*	*	*	*	*	*	*	*	*	*	*	*	*
=21	=21	=21	=21	=21	=21	=21	=21	=21	=21	=21	=21	=21	=21	=21
*rep	*	*	*	*	*	*	*	*	*	*	*	*	*	*
8AAA-/	4ee-/ 4a-/ 4e-/	.	2.ryy	.	.	4c\	.	.	2.r	.	.	4ee-\	wiecz-	.
8G-/L 8E-/	.	.	.	.	.	.	.	.	.	.	.	.	.	.
8AA-/J	8ee-/ 8e-/	.	.	.	.	8c\	.	.	.	.	.	8ee-\	-ne	.
8G-/L 8E-/	8dd-/L 8f/	.	.	.	.	8B-\L	.	.	.	.	.	8dd-\L	gwiazd	.
8AA-/	8ee-/ 8g-/	.	.	.	.	8c\J	.	.	.	.	.	8ee-\J	.	.
8G-/J 8E-/	8dd-/J 8f/	.	.	.	.	8B-\	.	.	.	.	.	8cc\	ka-	.
*Xrep	*	*	*	*	*	*	*	*	*	*	*	*	*	*
=22	=22	=22	=22	=22	=22	=22	=22	=22	=22	=22	=22	=22	=22	=22
*rep	*	*	*	*	*	*	*	*	*	*	*	*	*	*
*	*	*	*	*	*	*	*	*	*	*	*	*	*	*
8AAA-/	(4.dd-/ 4.f/	.	2.r	.	.	4.B-/	.	.	2.r	.	.	4.dd-\	-gań-	.
8G-/L 8E-/	.	.	.	.	.	.	.	.	.	.	.	.	.	.
8AA-/J	.	.	.	.	.	.	.	.	.	.	.	.	.	.
8G-/L 8E-/	4.cc/ 4.e-/)	.	.	.	.	4A-/	.	.	.	.	.	4cc\	-ce]]	.
8AA-/	.	.	.	.	.	.	.	.	.	.	.	.	.	.
8G-/J 8E-/	.	.	.	.	.	8r	.	.	.	.	.	8r	.	.
*Xrep	*	*	*	*	*	*	*	*	*	*	*	*	*	*
=23	=23	=23	=23	=23	=23	=23	=23	=23	=23	=23	=23	=23	=23	=23
*^	*	*	*	*	*	*	*	*	*	*	*	*	*	*
!	!	!	!	!	!	!LO:DY:a:t=sempre %s:rj	!	!	!LO:DY:a:t=sempre %s.:rj	!	!	!LO:DY:t=sempre %s.:rj	!	!	!LO:DY:a:t=sempre %s
!	!	!	!LO:HP:b=2	!	!	!	!	!	!	!	!	!	!	!	!
8AA-/L	4.AA-\	4gg-\ 4cc\ 4g-\	<	4A-\	.	pp	4c\	.	pp	4a-/	za-	pp	4cc\	.	pp
8E-/	.	.	.	.	.	.	.	.	.	.	.	.	.	.	.
8A-/J	.	8gg-\ 8cc\ 8g-\	[	8A-\	.	.	8c\	.	.	8g-/	-wsty-	.	8ee-\	.	.
8B--/L	4.BB--\	4.gg-\ 4.dd-\ 4.g-^\	.	(4.B--^\	.	.	(4.d-^\	.	.	[4.g-^/	-dzi-	.	[4.gg-\ [>4.ee-^\	.	.
!	!	!	!LO:HP:b=2	!	!	!	!	!	!	!	!	!	!	!	!
8E-/	.	.	>	.	.	.	.	.	.	.	.	.	.	.	.
8BB--/J	.	.	]	.	.	.	.	.	.	.	.	.	.	.	.
=24	=24	=24	=24	=24	=24	=24	=24	=24	=24	=24	=24	=24	=24	=24	=24
*	*	*	*	*	*	*	*	*	*	*	*	*	*^	*	*
*rep	*rep	*rep	*	*	*	*	*	*	*	*	*	*	*	*	*	*
!	!	!	!LO:HP:b=2	!	!	!	!	!	!	!	!	!	!	!	!	!
8AA-/L	4.AA-\	4gg-\ 4cc\ 4g-\	<	4A-\)	.	.	4c\)	.	.	4g-/]	.	.	4gg-\] 4ee-\]	4ryy	.	.
8E-/	.	.	.	.	.	.	.	.	.	.	.	.	.	.	.	.
8A-/J	.	8gg-\ 8cc\ 8g-\	[	8A-\	.	.	8c\	.	.	8g-/	-ło	.	8ee-/	8ee-\	.	.
!	!	!	!	!	!	!	!LO:N:vis=4	!	!	!LO:N:vis=4	!	!	!	!	!	!
8B--/L	4.BB--\	4.gg-\ 4.dd-\ 4.g-^\	.	4.B--^\	.	.	4.d-^\	.	.	4.g-^/	się	.	4.gg-\ 4.ee-^\	8ryy	.	.
!	!	!	!LO:HP:b=2	!	!	!	!	!	!	!	!	!	!	!	!	!
8E-/	.	.	>	.	.	.	.	.	.	.	.	.	.	4ryy	.	.
8BB--/J	.	.	]	.	.	.	.	.	.	.	.	.	.	.	.	.
*Xrep	*Xrep	*Xrep	*	*	*	*	*	*	*	*	*	*	*	*	*	*
*	*	*	*	*	*	*	*	*	*	*	*	*	*v	*v	*	*
!!LO:LB:g=original
=25	=25	=25	=25	=25	=25	=25	=25	=25	=25	=25	=25	=25	=25	=25	=25
(<8AA-/L	4.AA-\	4gg-\ 4cc\ 4g-\	.	4A-\	.	.	4e-\	.	.	4g-/	.	.	4cc\	li-	.
8E-/	.	.	.	.	.	.	.	.	.	.	.	.	.	.	.
!	!	!LO:S:s=1:note:problem:note-level slur	!	!	!	!	!	!	!	!	!	!	!	!	!
8A-/J	.	8gg-\| (>8cc\| 8g-\|	.	8AA-/	.	.	8e-\	.	.	8g-/	.	.	8cc\	-cem	.
!	!	!LO:S:s=1:note:problem:note-level slur	!	!	!	!	!	!	!	!	!	!	!	!	!
8BB--/L	4.BB--\	4gg-\ 4dd-\) 4g-\	.	4BB--/	.	.	4e-\	.	.	4g-/	.	.	4dd-\	ru-	.
8E-/	.	.	.	.	.	.	.	.	.	.	.	.	.	.	.
!	!	!LO:S:s=1:note:problem:note-level slur	!	!LO:TX:a:t=P:problem:główka nuty nieco wytarta	!	!	!	!	!	!	!	!	!	!	!
8B--/J	.	8gg-\| (>8dd-\| 8g-\|	.	8BB--/	.	.	8e-\	.	.	8g-/	.	.	8dd-\	-bi-	.
=26	=26	=26	=26	=26	=26	=26	=26	=26	=26	=26	=26	=26	=26	=26	=26
!	!LO:N:vis=4	!	!	!LO:TX:a:t=P:problem:kasownik przed kreską taktową	!	!	!	!	!	!	!	!	!	!	!
!	!LO:N:acc=n-	!LO:S:s=1:note:problem:note-level slur	!	!LO:N:acc=n-	!	!	!	!	!	!	!	!	!	!	!
8BB-/L	4.BB-X\	4gg-\ 4ddn\) 4g-\	.	4BB-X/	.	.	4e-\	.	.	4g-/	.	.	4ddn\	-no-	.
8E-/	.	.	.	.	.	.	.	.	.	.	.	.	.	.	.
!LO:N:acc=n-	!	!LO:S:s=1:note:problem:note-level slur	!	!	!	!	!	!	!	!	!	!	!	!	!
8B-X/J	.	8gg-\ (>8dd\ 8g-\	.	8BB-/	.	.	8e-\	.	.	8g-/	.	.	8dd\	-wem	.
!	!LO:N:vis=4	!LO:S:s=1:note:problem:note-level slur	!	!	!	!	!	!	!	!	!	!	!	!	!
8C-X/L	4.C-\	4gg-\ 4ee-\) 4g-\	.	4C-X/	.	.	(4e-\	.	.	4g-/	.	.	(4ee-\	zo-	.
8E-/	.	.	.	.	.	.	.	.	.	.	.	.	.	.	.
8c-X/J	.	8a-/ 8g-/ 8e-/	.	8C-/	.	.	8A-/)	.	.	8g-/	.	.	8a-/)	-rze	.
=27	=27	=27	=27	=27	=27	=27	=27	=27	=27	=27	=27	=27	=27	=27	=27
*	*	*^	*	*	*	*	*	*	*	*	*	*	*	*	*
!	!LO:N:vis=4	!	!	!	!	!	!	!	!	!	!	!	!	!LO:TX:a:t=a:color=red:note=duża litera, wzięta w kółko	!	!
8C/L	4.Cn\	4a-/ 4g-/ 4e-/	4.ryy	.	(4.Cn/	sre-	.	2.A-/	.	.	4.e-/	.	.	2.a-/	sre-	.
8E-/	.	.	.	.	.	.	.	.	.	.	.	.	.	.	.	.
8cn/J	.	8aa-\ 8a-\	.	.	.	.	.	.	.	.	.	.	.	.	.	.
8D-/L	4.D-\	8ff/L	4f\	.	4.D-/)	.	.	.	.	.	4.f/	.	.	.	.	.
8F/	.	8ee-/	.	.	.	.	.	.	.	.	.	.	.	.	.	.
8A-/J	.	8dd-/J	8ryy	.	.	.	.	.	.	.	.	.	.	.	.	.
*	*	*v	*v	*	*	*	*	*	*	*	*	*	*	*	*	*
=28	=28	=28	=28	=28	=28	=28	=28	=28	=28	=28	=28	=28	=28	=28	=28
8G-/L	4.E-\	(4.a-/	.	4.E-\	-brny	.	4.c\	.	.	4.g-/	.	.	4.a-/	-brny	.
8A-/	.	.	.	.	.	.	.	.	.	.	.	.	.	.	.
8c/J	.	.	.	.	.	.	.	.	.	.	.	.	.	.	.
8A-/L 8F/	4.F\	8dd-\)	.	4.F\	krol	.	4.d-\	.	.	4.a-/	.	.	4.a-\	król	.
8B-/	.	8r	.	.	.	.	.	.	.	.	.	.	.	.	.
8d-/J	.	8dd-\	.	.	.	.	.	.	.	.	.	.	.	.	.
=29	=29	=29	=29	=29	=29	=29	=29	=29	=29	=29	=29	=29	=29	=29	=29
*	*	*^	*	*	*	*	*	*	*	*	*	*	*	*	*
8B-/L 8G-/	4.G-\	(4dd-/	(2.dd-\	.	(4.G-\	no-	.	(2.d-\	.	.	(4.g-/	.	.	(4.b-\	no-	.
8d-/	.	.	.	.	.	.	.	.	.	.	.	.	.	.	.	.
8e-/J	.	8ddd-/	.	.	.	.	.	.	.	.	.	.	.	.	.	.
8c-X/L	4.A-\	8ccc-X/L	.	.	4.A-\	.	.	.	.	.	4.f/	.	.	4.cc-X\	.	.
8d-/	.	8bb-/	.	.	.	.	.	.	.	.	.	.	.	.	.	.
8f/J	.	8aa-/J)	.	.	.	.	.	.	.	.	.	.	.	.	.	.
=30	=30	=30	=30	=30	=30	=30	=30	=30	=30	=30	=30	=30	=30	=30	=30	=30
8cn/L	4.An\	(4.aa-/	4.ccn\	.	4.An\)	.	.	4.e-\)	.	.	4.e-/)	.	.	4.ccn\)	.	.
8e-/	.	.	.	.	.	.	.	.	.	.	.	.	.	.	.	.
8c/J	.	.	.	.	.	.	.	.	.	.	.	.	.	.	.	.
!LO:TX:a:t=P:problem:mixed beam	!	!	!	!	!	!	!	!LO:N:vis=4	!	!	!	!	!	!	!	!
8d-/L	4.B-\	4gg-/)	4.dd-\)	.	4.B-\	-cy	.	4.d-\	.	.	4.g-/	.	.	4.dd-\	-cy	.
8g->\	.	.	.	.	.	.	.	.	.	.	.	.	.	.	.	.
8G-/J	.	8gg-/	.	.	.	.	.	.	.	.	.	.	.	.	.	.
=31	=31	=31	=31	=31	=31	=31	=31	=31	=31	=31	=31	=31	=31	=31	=31	=31
*	*	*	*^	*	*	*	*	*	*	*	*	*	*	*	*	*
!	!	!	!	!LO:N:xstem	!	!	!	!	!	!	!	!	!	!	!	!	!
8c-X/L	4.C-X\	(8gg-/L	8cc-X\L	4.ee-/	.	4.c-X\	dą-	.	[4.e-\	.	.	4.g-/	.	.	[4.ee-\	dą-	.
8E-/	.	16aa-/L	8b-\	.	.	.	.	.	.	.	.	.	.	.	.	.	.
.	.	16gg-/	.	.	.	.	.	.	.	.	.	.	.	.	.	.	.
!	!	!	!	!	!LO:HP:b=2	!	!	!	!	!	!	!	!	!	!	!	!
!	!	!	!	!	!LO:HP:t=diminuendo.	!	!	!	!	!	!	!	!	!	!	!	!
8G-/J	.	16ff/	8b--\J	.	>	.	.	.	.	.	.	.	.	.	.	.	.
.	.	16gg-/JJ	.	.	.	.	.	.	.	.	.	.	.	.	.	.	.
8cn/L	4.Cn\	(>4aa-/	8a-\L	4.ee-\	.	4.cn\	-ży	.	4e-\]	.	.	(8a-/L	.	.	4ee-\]	.	.
8E-/	.	.	8gn\	.	.	.	.	.	.	.	.	8gn/)	.	.	.	.	.
8A-/J	.	8ee-/)	8g-X\J	.	.	.	.	.	8A-/	.	.	8g-X/J	.	.	8a-/	-ży	.
=32	=32	=32	=32	=32	=32	=32	=32	=32	=32	=32	=32	=32	=32	=32	=32	=32	=32
8D-/L	4.D-\	8ff/L	8f\	4dd-\	.	4.d-\	spo-	.	4.f\	.	.	4.f/	.	.	4.a-/	spo-	.
&(<16e-/L	.	16gg-/L	4a-\	.	.	.	.	.	.	.	.	.	.	.	.	.	.
16d-/	.	16ff/	.	.	.	.	.	.	.	.	.	.	.	.	.	.	.
16c/	.	16ee-/	.	8ryy	.	.	.	.	.	.	.	.	.	.	.	.	.
16c-X/JJ	.	16ff/JJ	.	.	.	.	.	.	.	.	.	.	.	.	.	.	.
!	!LO:TX:a:t=P:problem:łuk kończy się za nutą	!	!	!	!	!	!	!	!	!	!	!	!	!	!	!	!
8B-/L	4.GG-\)	4gg-/	8g-\L	4.ryy	.	4.G-\	-cząć	.	4.B-\	.	.	4.e-/	.	.	4.g-/	-cząć	.
8A-/	.	.	8a-\	.	.	.	.	.	.	.	.	.	.	.	.	.	.
8G-/J&)	.	8b-/)	8d-\J	.	.	.	.	.	.	.	.	.	.	.	.	.	.
*	*	*	*v	*v	*	*	*	*	*	*	*	*	*	*	*	*	*
*v	*v	*	*	*	*	*	*	*	*	*	*	*	*	*	*	*
!!LO:PB:g=original
=33	=33	=33	=33	=33	=33	=33	=33	=33	=33	=33	=33	=33	=33	=33	=33
!	!LO:TX:t=P:problem:mixed beam	!	!	!	!	!	!	!	!	!	!	!	!	!	!
4.AA-\	8dd-/L	(<16F</LL	.	8A-\L	.	.	4A-/	.	.	8d-/L	.	.	8f/L	przy	.
.	.	16A-</	.	.	.	.	.	.	.	.	.	.	.	.	.
.	16ee-/L	16d-\	.	8F\J	.	.	.	.	.	8f/J	.	.	8a-/J	.	.
.	16dd-/	16f\J	.	.	.	.	.	.	.	.	.	.	.	.	.
.	16cc/	[8a-\J)	.	8D-\	.	.	8A-/	.	.	8a-/	.	.	8a-/	ko-	.
.	16dd-/JJ	.	.	.	.	.	.	.	.	.	.	.	.	.	.
4B-\ 4E-\	(4ff/	8a-\L]	.	4.AA-/	.	.	4.A-/	.	.	4.a-/	.	.	4.a-/	-chan-	.
.	.	8g-\	.	.	.	.	.	.	.	.	.	.	.	.	.
8c\ 8A-\	8a-/)	8g-X\J	.	.	.	.	.	.	.	.	.	.	.	.	.
=34	=34	=34	=34	=34	=34	=34	=34	=34	=34	=34	=34	=34	=34	=34	=34
!!LO:TX:t=1ma
*>B1	*>B1	*>B1	*>B1	*>B1	*>B1	*>B1	*>B1	*>B1	*>B1	*>B1	*>B1	*>B1	*>B1	*>B1	*>B1
8D-\L	[4.ff/	16f\LL	.	4D-/	.	.	4A-/	.	.	4f/	.	.	4a-/	-ce.	.
.	.	16g-\	.	.	.	.	.	.	.	.	.	.	.	.	.
8A-\	.	16b-\	.	.	.	.	.	.	.	.	.	.	.	.	.
.	.	16a-\	.	.	.	.	.	.	.	.	.	.	.	.	.
8d-\J	.	16g-\	.	8r	.	.	8r	.	.	8r	.	.	8r	.	.
.	.	16f\JJ	.	.	.	.	.	.	.	.	.	.	.	.	.
16e-\LL	8ff/L]	4.ryy	.	4r	.	.	4r	.	.	4r	.	.	4r	.	.
16d-\	.	.	.	.	.	.	.	.	.	.	.	.	.	.	.
16c\	8.ee-/ 8.a-/	.	.	.	.	.	.	.	.	.	.	.	.	.	.
16B-\	.	.	.	.	.	.	.	.	.	.	.	.	.	.	.
16A-\JJ	.	.	.	8r	.	.	8r	.	.	8r	.	.	8r	.	.
16r	16dd-/Jk 16f/	.	.	.	.	.	.	.	.	.	.	.	.	.	.
=35:|!	=35:|!	=35:|!	=35:|!	=35:|!	=35:|!	=35:|!	=35:|!	=35:|!	=35:|!	=35:|!	=35:|!	=35:|!	=35:|!	=35:|!	=35:|!
!!LO:TX:t=2da
*>B2	*>B2	*>B2	*>B2	*>B2	*>B2	*>B2	*>B2	*>B2	*>B2	*>B2	*>B2	*>B2	*>B2	*>B2	*>B2
!LO:TX:t=P:problem:mixed beam	!	!	!	!	!	!	!	!	!	!	!	!	!	!	!
8d-\L 8D-\	2.ff/ 2.dd-/	(>16f\LL	.	4D-\	.	.	4A-/	.	.	4d-/	.	.	4f/	.	.
.	.	16g-\	.	.	.	.	.	.	.	.	.	.	.	.	.
8A-\	.	16b-\	.	.	.	.	.	.	.	.	.	.	.	.	.
.	.	16a-\	.	.	.	.	.	.	.	.	.	.	.	.	.
8AA-/J	.	16g-\	.	8r	.	.	8r	.	.	8r	.	.	8r	.	.
.	.	16f\JJ	.	.	.	.	.	.	.	.	.	.	.	.	.
8DD-/L	.	16e-\LL	.	4r	.	.	4r	.	.	4r	.	.	4r	.	.
.	.	16d-\	.	.	.	.	.	.	.	.	.	.	.	.	.
8AA-/	.	16c\	.	.	.	.	.	.	.	.	.	.	.	.	.
.	.	16B-\	.	.	.	.	.	.	.	.	.	.	.	.	.
8D-/J	.	16A-\	.	8r	.	.	8r	.	.	8r	.	.	8r	.	.
.	.	16f\JJ)	.	.	.	.	.	.	.	.	.	.	.	.	.
!LO:TX:b:rj:t=4:color=blue	!	!	!	!	!	!	!	!	!	!	!	!	!	!	!
=36	=36	=36	=36	=36	=36	=36	=36	=36	=36	=36	=36	=36	=36	=36	=36
*>C	*>C	*>C	*>C	*>C	*>C	*>C	*>C	*>C	*>C	*>C	*>C	*>C	*>C	*>C	*>C
!	!LO:TX:b:t=a=:color=red	!	!	!	!	!	!	!	!	!	!	!	!	!	!
8DD-/L	16dd-/LL	2.f\	.	2.r	.	.	2.r	.	.	2.r	.	.	2.r	.	.
.	16ee-/	.	.	.	.	.	.	.	.	.	.	.	.	.	.
8AA-/	16gg-/	.	.	.	.	.	.	.	.	.	.	.	.	.	.
.	16ff/	.	.	.	.	.	.	.	.	.	.	.	.	.	.
8D-/J	16ee-/	.	.	.	.	.	.	.	.	.	.	.	.	.	.
.	16dd-/JJ	.	.	.	.	.	.	.	.	.	.	.	.	.	.
*rep	*	*	*	*	*	*	*	*	*	*	*	*	*	*	*
8DD-/L	16cc/LL	.	.	.	.	.	.	.	.	.	.	.	.	.	.
.	16b-/	.	.	.	.	.	.	.	.	.	.	.	.	.	.
8AA-/	16a-/	.	.	.	.	.	.	.	.	.	.	.	.	.	.
.	16g-/	.	.	.	.	.	.	.	.	.	.	.	.	.	.
8D-/J	16f/	.	.	.	.	.	.	.	.	.	.	.	.	.	.
.	16dd-/JJ	.	.	.	.	.	.	.	.	.	.	.	.	.	.
*Xrep	*	*	*	*	*	*	*	*	*	*	*	*	*	*	*
=37	=37	=37	=37	=37	=37	=37	=37	=37	=37	=37	=37	=37	=37	=37	=37
*rep	*	*	*	*	*	*	*	*	*	*	*	*	*	*	*
8DD-/L	2.dd-/	(>16f\LL	.	2.r	.	.	2.r	.	.	2.r	.	.	2.r	.	.
.	.	16g-\	.	.	.	.	.	.	.	.	.	.	.	.	.
8AA-/	.	16b-\	.	.	.	.	.	.	.	.	.	.	.	.	.
.	.	16a-\	.	.	.	.	.	.	.	.	.	.	.	.	.
8D-/J	.	16g-\	.	.	.	.	.	.	.	.	.	.	.	.	.
.	.	16f\JJ	.	.	.	.	.	.	.	.	.	.	.	.	.
8DD-/L	.	16e-\LL	.	.	.	.	.	.	.	.	.	.	.	.	.
.	.	16d-\	.	.	.	.	.	.	.	.	.	.	.	.	.
8AA-/	.	16c\	.	.	.	.	.	.	.	.	.	.	.	.	.
.	.	16B-\	.	.	.	.	.	.	.	.	.	.	.	.	.
8D-/J	.	16A-\	.	.	.	.	.	.	.	.	.	.	.	.	.
.	.	16f\JJ)	.	.	.	.	.	.	.	.	.	.	.	.	.
*Xrep	*	*	*	*	*	*	*	*	*	*	*	*	*	*	*
=38	=38	=38	=38	=38	=38	=38	=38	=38	=38	=38	=38	=38	=38	=38	=38
8DD-/L	(16a-/LL	4.f\	.	2.r	.	.	2.r	.	.	2.r	.	.	2.r	.	.
.	16b-/	.	.	.	.	.	.	.	.	.	.	.	.	.	.
8AA-/	16dd-/	.	.	.	.	.	.	.	.	.	.	.	.	.	.
.	16cc-X/	.	.	.	.	.	.	.	.	.	.	.	.	.	.
8D-/J	16b-/	.	.	.	.	.	.	.	.	.	.	.	.	.	.
.	16a-/JJ	.	.	.	.	.	.	.	.	.	.	.	.	.	.
8DD-/	16g-/LL	4ryy	.	.	.	.	.	.	.	.	.	.	.	.	.
.	16f/	.	.	.	.	.	.	.	.	.	.	.	.	.	.
!LO:TX:t=P:problem:mixed beam	!	!	!	!	!	!	!	!	!	!	!	!	!	!	!
8D-\L	16e-/	.	.	.	.	.	.	.	.	.	.	.	.	.	.
.	16d-/	.	.	.	.	.	.	.	.	.	.	.	.	.	.
8AA-/J	16c-X/	8c-\	.	.	.	.	.	.	.	.	.	.	.	.	.
.	16a-/JJ)	.	.	.	.	.	.	.	.	.	.	.	.	.	.
!!LO:LB:g=original
=39	=39	=39	=39	=39	=39	=39	=39	=39	=39	=39	=39	=39	=39	=39	=39
*	*ped	*	*	*	*	*	*	*	*	*	*	*	*	*	*
16D-\LL	8r	[>4.a-\ [4.c-X\	.	2.r@	.	.	2.r@	.	.	2.r@	.	.	2.r@	.	.
16E-\	.	.	.	.	.	.	.	.	.	.	.	.	.	.	.
16F\	8rff	.	.	.	.	.	.	.	.	.	.	.	.	.	.
16E-\	.	.	.	.	.	.	.	.	.	.	.	.	.	.	.
16D-\	(<16dd-/LL	.	.	.	.	.	.	.	.	.	.	.	.	.	.
16AA-\JJ	16ddd-/JJ)	.	.	.	.	.	.	.	.	.	.	.	.	.	.
*rep	*	*	*	*	*	*	*	*	*	*	*	*	*	*	*
16D-\LL	[4.ddd-/ [4.dd-/	4a-\] 4c-\]	.	.	.	.	.	.	.	.	.	.	.	.	.
16E-\	.	.	.	.	.	.	.	.	.	.	.	.	.	.	.
16F\	.	.	.	.	.	.	.	.	.	.	.	.	.	.	.
16E-\	.	.	.	.	.	.	.	.	.	.	.	.	.	.	.
16D-\	.	(>16c-\LL	.	.	.	.	.	.	.	.	.	.	.	.	.
16AA-\JJ	.	16a-\JJ)	.	.	.	.	.	.	.	.	.	.	.	.	.
*Xrep	*	*	*	*	*	*	*	*	*	*	*	*	*	*	*
=40	=40	=40	=40	=40	=40	=40	=40	=40	=40	=40	=40	=40	=40	=40	=40
*rep	*	*	*	*	*	*	*	*	*	*	*	*	*	*	*
16D-\LL	4ddd-/] 4dd-/]	[>4.a-\ [4.c\	.	2.r@	.	.	2.r@	.	.	2.r@	.	.	2.r@	.	.
16E-\	.	.	.	.	.	.	.	.	.	.	.	.	.	.	.
16F\	.	.	.	.	.	.	.	.	.	.	.	.	.	.	.
16E-\	.	.	.	.	.	.	.	.	.	.	.	.	.	.	.
16D-\	(16dd-/LL	.	.	.	.	.	.	.	.	.	.	.	.	.	.
16AA-\JJ	16ddd-/JJ)	.	.	.	.	.	.	.	.	.	.	.	.	.	.
16D-\LL	4.ddd-/ 4.dd-/	4a-\] 4c\]	.	.	.	.	.	.	.	.	.	.	.	.	.
16E-\	.	.	.	.	.	.	.	.	.	.	.	.	.	.	.
16F\	.	.	.	.	.	.	.	.	.	.	.	.	.	.	.
16E-\	.	.	.	.	.	.	.	.	.	.	.	.	.	.	.
16D-\	.	(>16c\LL	.	.	.	.	.	.	.	.	.	.	.	.	.
16AA-\JJ	.	16a-\JJ)	.	.	.	.	.	.	.	.	.	.	.	.	.
*Xrep	*	*	*	*	*	*	*	*	*	*	*	*	*	*	*
=41	=41	=41	=41	=41	=41	=41	=41	=41	=41	=41	=41	=41	=41	=41	=41
(16D-/LL 16DD-/	8ddd-/ 8dd-/	4.a-\ 4.c\	.	2.r@	.	.	2.r@	.	.	2.r@	.	.	2.r@	.	.
16F/	.	.	.	.	.	.	.	.	.	.	.	.	.	.	.
16A-/	8r	.	.	.	.	.	.	.	.	.	.	.	.	.	.
16F/	.	.	.	.	.	.	.	.	.	.	.	.	.	.	.
16D-/	(<16dd-/LL	.	.	.	.	.	.	.	.	.	.	.	.	.	.
16C/JJ	16ddd-/JJ)	.	.	.	.	.	.	.	.	.	.	.	.	.	.
16C-X/LL	8r	4.f\ 4.d-\	.	.	.	.	.	.	.	.	.	.	.	.	.
16D-/	.	.	.	.	.	.	.	.	.	.	.	.	.	.	.
16F/	8r	.	.	.	.	.	.	.	.	.	.	.	.	.	.
16D-/	.	.	.	.	.	.	.	.	.	.	.	.	.	.	.
16C-/	(<16a-/LL	.	.	.	.	.	.	.	.	.	.	.	.	.	.
16BB-/JJ	16aa-/JJ)	.	.	.	.	.	.	.	.	.	.	.	.	.	.
=42	=42	=42	=42	=42	=42	=42	=42	=42	=42	=42	=42	=42	=42	=42	=42
*^	*	*	*	*	*	*	*	*	*	*	*	*	*	*	*
16AA-/LL	4.DD-\	8r	4.a-\ 4.c-X\	.	2.r@	.	.	2.r@	.	.	2.r@	.	.	2.r@	.	.
16C-X/	.	.	.	.	.	.	.	.	.	.	.	.	.	.	.	.
16D-/	.	8r	.	.	.	.	.	.	.	.	.	.	.	.	.	.
16C-/	.	.	.	.	.	.	.	.	.	.	.	.	.	.	.	.
16AA-/	.	(<16dd-/LL	.	.	.	.	.	.	.	.	.	.	.	.	.	.
16FF/JJ	.	16ddd-/JJ)	.	.	.	.	.	.	.	.	.	.	.	.	.	.
16EE-/LL	4.DD-\	8r	4.g-\ 4.cn\	.	.	.	.	.	.	.	.	.	.	.	.	.
16AA-/	.	.	.	.	.	.	.	.	.	.	.	.	.	.	.	.
16E-/	.	8r	.	.	.	.	.	.	.	.	.	.	.	.	.	.
16AA-/	.	.	.	.	.	.	.	.	.	.	.	.	.	.	.	.
16E-/)	.	(<16a-/LL	.	.	.	.	.	.	.	.	.	.	.	.	.	.
16AA-/JJ	.	16aa-/JJ)	.	.	.	.	.	.	.	.	.	.	.	.	.	.
*v	*v	*	*	*	*	*	*	*	*	*	*	*	*	*	*	*
=43	=43	=43	=43	=43	=43	=43	=43	=43	=43	=43	=43	=43	=43	=43	=43
.	.	8qd-/	.	.	.	.	.	.	.	.	.	.	.	.	.
(16D-/LL	([2.ff/ [2.dd-/	4a-\	.	2.r@	.	.	2.r@	.	.	2.r@	.	.	2.r@	.	.
16E-/	.	.	.	.	.	.	.	.	.	.	.	.	.	.	.
16D-/	.	.	.	.	.	.	.	.	.	.	.	.	.	.	.
16AA-/	.	.	.	.	.	.	.	.	.	.	.	.	.	.	.
16D-/	.	8a-'>\ 8f'>\	.	.	.	.	.	.	.	.	.	.	.	.	.
16AA-/JJ	.	.	.	.	.	.	.	.	.	.	.	.	.	.	.
*rep	*	*	*	*	*	*	*	*	*	*	*	*	*	*	*
16D-/LL	.	4a-'>\ 4f'>\	.	.	.	.	.	.	.	.	.	.	.	.	.
16E-/	.	.	.	.	.	.	.	.	.	.	.	.	.	.	.
16D-/	.	.	.	.	.	.	.	.	.	.	.	.	.	.	.
16AA-/	.	.	.	.	.	.	.	.	.	.	.	.	.	.	.
16D-/	.	8a-'>\ 8f'>\	.	.	.	.	.	.	.	.	.	.	.	.	.
16AA-/JJ	.	.	.	.	.	.	.	.	.	.	.	.	.	.	.
*Xrep	*	*	*	*	*	*	*	*	*	*	*	*	*	*	*
=44	=44	=44	=44	=44	=44	=44	=44	=44	=44	=44	=44	=44	=44	=44	=44
16D-/LL	4ff/] 4dd-'/]	4a-\ 4f\	.	2.r@	.	.	2.r@	.	.	2.r@	.	.	2.r@	.	.
16E-/	.	.	.	.	.	.	.	.	.	.	.	.	.	.	.
16D-/	.	.	.	.	.	.	.	.	.	.	.	.	.	.	.
16AA-/	.	.	.	.	.	.	.	.	.	.	.	.	.	.	.
16FF/	8ff'/ 8dd-'/ 8a-'/ 8f'/	2ryy	.	.	.	.	.	.	.	.	.	.	.	.	.
16AA-/JJ	.	.	.	.	.	.	.	.	.	.	.	.	.	.	.
16D-/LL	4ff'/ 4dd-'/ 4a-'/ 4f'/	.	.	.	.	.	.	.	.	.	.	.	.	.	.
16E-/	.	.	.	.	.	.	.	.	.	.	.	.	.	.	.
16D-/	.	.	.	.	.	.	.	.	.	.	.	.	.	.	.
16BB-/	.	.	.	.	.	.	.	.	.	.	.	.	.	.	.
!	!LO:TX:b:t==B:color=red:problem:za kreską taktową	!	!	!	!	!	!	!	!	!	!	!	!	!	!
16AA-/	8ff'/ 8dd-'/ 8a-'/ 8f'/)	.	.	.	.	.	.	.	.	.	.	.	.	.	.
16FF/JJ)	.	.	.	.	.	.	.	.	.	.	.	.	.	.	.
*	*v	*v	*	*	*	*	*	*	*	*	*	*	*	*	*
!!LO:PB:g=original
=45	=45	=45	=45	=45	=45	=45	=45	=45	=45	=45	=45	=45	=45	=45
*^	*	*	*	*	*	*	*	*	*	*	*	*	*	*
!	!	!	!	!	!	!	!	!	!	!	!	!	!LO:TX:a:t=E:color=red:note=duża litera wzięta w kółko	!	!
!	!	!LO:TX:t=P:problem:wcześniej skreślone 3 takty	!	!	!	!	!	!	!	!	!	!	!	!	!
8ryy	2.DD-^^>/	16ff/ 16dd-/ 16f/	.	2.r	.	.	2.r	.	.	2.r	.	.	2.r	.	.
.	.	16A-/LL	.	.	.	.	.	.	.	.	.	.	.	.	.
8AA-^</L	.	16B-/	.	.	.	.	.	.	.	.	.	.	.	.	.
.	.	16c/	.	.	.	.	.	.	.	.	.	.	.	.	.
8D-/J	.	16d-/	.	.	.	.	.	.	.	.	.	.	.	.	.
.	.	16e-/JJ	.	.	.	.	.	.	.	.	.	.	.	.	.
8A-^</L	.	16f/LL	.	.	.	.	.	.	.	.	.	.	.	.	.
.	.	16g-/	.	.	.	.	.	.	.	.	.	.	.	.	.
8D-/	.	16a-/	.	.	.	.	.	.	.	.	.	.	.	.	.
.	.	16b-/	.	.	.	.	.	.	.	.	.	.	.	.	.
8AA-^</J	.	16cc/	.	.	.	.	.	.	.	.	.	.	.	.	.
.	.	16dd-/JJ	.	.	.	.	.	.	.	.	.	.	.	.	.
=46	=46	=46	=46	=46	=46	=46	=46	=46	=46	=46	=46	=46	=46	=46	=46
*rep	*rep	*	*	*	*	*	*	*	*	*	*	*	*	*	*
8ryy	2.DD-^^>/	16a-/LL	.	2.r	.	.	4r	.	.	2.r	.	.	2.r	.	.
.	.	16f/	.	.	.	.	.	.	.	.	.	.	.	.	.
8AA-^</L	.	16g-/	.	.	.	.	.	.	.	.	.	.	.	.	.
.	.	16a-/	.	.	.	.	.	.	.	.	.	.	.	.	.
8D-/J	.	16b-/	.	.	.	.	8r	.	.	.	.	.	.	.	.
.	.	16a-/JJ	.	.	.	.	.	.	.	.	.	.	.	.	.
8A-^</L	.	16b-\LL	.	.	.	.	4r	.	.	.	.	.	.	.	.
.	.	16cc\	.	.	.	.	.	.	.	.	.	.	.	.	.
8D-/	.	16dd-\	.	.	.	.	.	.	.	.	.	.	.	.	.
.	.	16ee-\	.	.	.	.	.	.	.	.	.	.	.	.	.
!	!	!	!	!	!	!	!	!	!LO:DY:a:rj	!	!	!	!	!	!
8AA-^</J	.	16ff\	.	.	.	.	8A-/	Ros-	p	.	.	.	.	.	.
.	.	16gg-\JJ	.	.	.	.	.	.	.	.	.	.	.	.	.
*Xrep	*Xrep	*	*	*	*	*	*	*	*	*	*	*	*	*	*
=47	=47	=47	=47	=47	=47	=47	=47	=47	=47	=47	=47	=47	=47	=47	=47
*rep	*rep	*	*	*	*	*	*	*	*	*	*	*	*	*	*
!	!	!	!	!	!	!	!	!	!	!	!	!	!LO:TX:a:t=C:color=red	!	!
8ryy	2.DD-^^>\	16aa-\LL	.	2.r	.	.	4A-/	-cho-	.	2.r	.	.	2.r	.	.
.	.	16bb-\	.	.	.	.	.	.	.	.	.	.	.	.	.
8AA-^</L	.	16aa-\	.	.	.	.	.	.	.	.	.	.	.	.	.
.	.	16ff\	.	.	.	.	.	.	.	.	.	.	.	.	.
8D-/J	.	16dd-\	.	.	.	.	8A-/	-dzą	.	.	.	.	.	.	.
.	.	16ee-\JJ	.	.	.	.	.	.	.	.	.	.	.	.	.
8A-^</L	.	16ff\LL	.	.	.	.	8f\L	się	.	.	.	.	.	.	.
.	.	16ee-\	.	.	.	.	.	.	.	.	.	.	.	.	.
8D-/	.	16dd-\	.	.	.	.	8e-\J	.	.	.	.	.	.	.	.
.	.	16ee-\	.	.	.	.	.	.	.	.	.	.	.	.	.
8AA-^</J	.	16ff\	.	.	.	.	8d-\	z_dża-	.	.	.	.	.	.	.
.	.	16gg-\JJ	.	.	.	.	.	.	.	.	.	.	.	.	.
*Xrep	*Xrep	*	*	*	*	*	*	*	*	*	*	*	*	*	*
=48	=48	=48	=48	=48	=48	=48	=48	=48	=48	=48	=48	=48	=48	=48	=48
*rep	*rep	*rep	*	*	*	*	*	*	*	*	*	*	*	*	*
!	!	!	!	!	!	!	!LO:TX:a:t=P:problem:zagadkowy wygląd nuty, cauda po lewej stronie?	!	!	!	!	!	!	!	!
8ryy	2.DD-^^>\	16aa-\LL	.	4r	.	.	2.A-/	-mi-	.	4r	.	.	4r	.	.
.	.	16bb-\	.	.	.	.	.	.	.	.	.	.	.	.	.
8AA-^</L	.	16aa-\	.	.	.	.	.	.	.	.	.	.	.	.	.
.	.	16ff\	.	.	.	.	.	.	.	.	.	.	.	.	.
8D-/J	.	16dd-\	.	8r	.	.	.	.	.	8r	.	.	8r	.	.
.	.	16ee-\JJ	.	.	.	.	.	.	.	.	.	.	.	.	.
8A-^</L	.	16ff\LL	.	4r	.	.	.	.	.	4r	.	.	4r	.	.
.	.	16ee-\	.	.	.	.	.	.	.	.	.	.	.	.	.
8D-/	.	16dd-\	.	.	.	.	.	.	.	.	.	.	.	.	.
.	.	16ee-\	.	.	.	.	.	.	.	.	.	.	.	.	.
!	!	!	!	!	!	!	!	!	!	!	!	!	!	!	!LO:DY:a
!	!	!	!	!	!	!	!	!	!	!LO:TX:a:t=P:problem:myślnik po "po", ale tekst nie jest kontynuowany; także w Basie	!	!LO:DY:a:rj	!	!	!
8AA-^</J	.	16ff\	.	8AA-/	po	.	.	.	.	8d-'/	po	pp	8a-'/ 8f'/	po-	pp
.	.	16gg-\JJ	.	.	.	.	.	.	.	.	.	.	.	.	.
*Xrep	*Xrep	*Xrep	*	*	*	*	*	*	*	*	*	*	*	*	*
!!LO:LB:g=original
=49	=49	=49	=49	=49	=49	=49	=49	=49	=49	=49	=49	=49	=49	=49	=49
!LO:TX:a:t=P:problem:8DD-/ i 2.DD-\ jako jedna nuta z niewypełnioną główką i dwoma caudami (takty 49-54)	!	!	!	!	!	!	!	!	!	!	!	!	!	!	!
8DD-/	2.DD-\	16aa-\LL	.	(4AA-/	.	.	4A-/	-dów	.	4.d-/	.	.	4.a-/ 4.f/	-boż-	.
.	.	16ddd-\	.	.	.	.	.	.	.	.	.	.	.	.	.
8AA-/L	.	16ccc\	.	.	.	.	.	.	.	.	.	.	.	.	.
.	.	16bb-\	.	.	.	.	.	.	.	.	.	.	.	.	.
8D-/J	.	16aa-\	.	8D-/)	.	.	8r	.	.	.	.	.	.	.	.
.	.	16bb-\JJ	.	.	.	.	.	.	.	.	.	.	.	.	.
!LO:TX:t=P:problem:mixed beam	!	!	!	!	!	!	!	!	!	!	!	!	!	!	!
8E-/L	.	16aa-\LL	.	8C/L	.	.	4r	.	.	4e-/	.	.	4a-/ 4g-/	-ni	.
.	.	16gg-\	.	.	.	.	.	.	.	.	.	.	.	.	.
8AA-/	.	16dd-\	.	8BB-/J	.	.	.	.	.	.	.	.	.	.	.
.	.	16ee-\	.	.	.	.	.	.	.	.	.	.	.	.	.
8A-\J	.	16ff\	.	8AA-/	.	.	8r	.	.	8c/	.	.	8a-/ 8g-/	miesz-	.
.	.	16gg-\JJ	.	.	.	.	.	.	.	.	.	.	.	.	.
=50	=50	=50	=50	=50	=50	=50	=50	=50	=50	=50	=50	=50	=50	=50	=50
8DD-/	2.DD-\	16aa-\LL	.	2.F\	.	.	2.r	.	.	4.d-/	.	.	4.a-/ 4.f/	-kań-	.
.	.	16gg-\	.	.	.	.	.	.	.	.	.	.	.	.	.
8AA-/L	.	16ff\	.	.	.	.	.	.	.	.	.	.	.	.	.
.	.	16ee-\	.	.	.	.	.	.	.	.	.	.	.	.	.
8D-/J	.	16dd-\	.	.	.	.	.	.	.	.	.	.	.	.	.
.	.	16ee-\JJ	.	.	.	.	.	.	.	.	.	.	.	.	.
!LO:TX:t=P:problem:mixed beam	!	!	!	!	!	!	!	!	!	!	!	!	!	!	!
8A-\L	.	16ff\LL	.	.	.	.	.	.	.	8d-/	.	.	8a-/ 8f/	-ce,	.
.	.	16ee-\	.	.	.	.	.	.	.	.	.	.	.	.	.
8D-\	.	16dd-\	.	.	.	.	.	.	.	8r	.	.	8r	.	.
.	.	16ee-\	.	.	.	.	.	.	.	.	.	.	.	.	.
8AA-/J	.	16ff\	.	.	.	.	.	.	.	8r	.	.	8a-/	w_ha-	.
.	.	16gg-\JJ	.	.	.	.	.	.	.	.	.	.	.	.	.
=51	=51	=51	=51	=51	=51	=51	=51	=51	=51	=51	=51	=51	=51	=51	=51
*rep	*rep	*	*	*	*	*	*	*	*	*	*	*	*	*	*
8DD-/	2.DD-\	16aa-\LL	.	4AA-/	.	.	2.r	.	.	2.r	.	.	4a-\	-re-	.
.	.	16bb-\	.	.	.	.	.	.	.	.	.	.	.	.	.
8AA-/L	.	16aa-\	.	.	.	.	.	.	.	.	.	.	.	.	.
.	.	16ff\	.	.	.	.	.	.	.	.	.	.	.	.	.
8D-/J	.	16dd-\	.	8r	.	.	.	.	.	.	.	.	8a-\	-mie	.
.	.	16ee-\JJ	.	.	.	.	.	.	.	.	.	.	.	.	.
!LO:TX:t=P:problem:mixed beam	!	!	!	!	!	!	!	!	!	!	!	!	!	!	!
8A-\L	.	16ff\LL	.	4r	.	.	.	.	.	.	.	.	(8.ff\L	nie-	.
.	.	16ee-\	.	.	.	.	.	.	.	.	.	.	.	.	.
8D-\	.	16dd-\	.	.	.	.	.	.	.	.	.	.	.	.	.
.	.	16ee-\	.	.	.	.	.	.	.	.	.	.	16ee-\Jk)	.	.
8AA-/J	.	16ff\	.	8r	.	.	.	.	.	.	.	.	8dd-\	-bios	.
.	.	16gg-\JJ	.	.	.	.	.	.	.	.	.	.	.	.	.
*Xrep	*Xrep	*	*	*	*	*	*	*	*	*	*	*	*	*	*
=52	=52	=52	=52	=52	=52	=52	=52	=52	=52	=52	=52	=52	=52	=52	=52
*rep	*rep	*	*	*	*	*	*	*	*	*	*	*	*	*	*
8DD-/	2.DD-\	16aa-\LL	.	4r	.	.	2.r	.	.	2ryy	.	.	4.a-/	bły-	.
.	.	16ddd-\	.	.	.	.	.	.	.	.	.	.	.	.	.
8AA-/L	.	16aa-\	.	.	.	.	.	.	.	.	.	.	.	.	.
.	.	16ff\	.	.	.	.	.	.	.	.	.	.	.	.	.
8D-/J	.	16dd-\	.	8r	.	.	.	.	.	.	.	.	.	.	.
.	.	16ee-\JJ	.	.	.	.	.	.	.	.	.	.	.	.	.
!LO:TX:t=P:problem:mixed beam	!	!	!	!	!	!	!	!	!	!	!	!	!	!	!
8A-\L	.	16een\LL	.	4r	.	.	.	.	.	.	.	.	8a-/	-szczą	.
.	.	16ff\	.	.	.	.	.	.	.	.	.	.	.	.	.
8D-\	.	16gg-\	.	.	.	.	.	.	.	8ryy	.	.	8r	.	.
.	.	16aa-\	.	.	.	.	.	.	.	.	.	.	.	.	.
8AA-/J	.	16bb-\	.	8d-\	gwiazd	.	.	.	.	8f/	.	.	8a-/	gwiazd	.
.	.	16ccc\JJ	.	.	.	.	.	.	.	.	.	.	.	.	.
*Xrep	*Xrep	*	*	*	*	*	*	*	*	*	*	*	*	*	*
=53	=53	=53	=53	=53	=53	=53	=53	=53	=53	=53	=53	=53	=53	=53	=53
!LO:ACC:color=blue	!LO:ACC:color=blue	!	!	!	!	!	!	!	!	!	!	!	!	!	!
8DD-X/	2.DD-X\	16ddd-\LL	.	(4d-\	wiecz-	.	(>4A-^\	wie-	.	4.f/	.	.	4.a-/	wie-	.
.	.	16fff\	.	.	.	.	.	.	.	.	.	.	.	.	.
8AA-/L	.	16eee-\	.	.	.	.	.	.	.	.	.	.	.	.	.
.	.	16ddd-\	.	.	.	.	.	.	.	.	.	.	.	.	.
8D-/J	.	16ccc\	.	8A-\)	.	.	8f\	-czne	.	.	.	.	.	.	.
.	.	16bb-\JJ	.	.	.	.	.	.	.	.	.	.	.	.	.
!LO:TX:t=P:problem:mixed beam	!	!	!	!	!	!	!	!	!	!	!	!	!	!	!
8E-\L	.	16ccc\LL	.	8A-\	-ne	.	8g-\L	gwiazd	.	8e-/	.	.	8a-/	-czne	.
.	.	16bb-\	.	.	.	.	.	.	.	.	.	.	.	.	.
8AA-/	.	16aa-\	.	8r	.	.	8f\J	.	.	8r	.	.	8r	.	.
.	.	16bb-\	.	.	.	.	.	.	.	.	.	.	.	.	.
8A-\J	.	16gg-\	.	8A-\	ka-	.	8e-\	ka-	.	8A-/	.	.	8g-/	ka-	.
.	.	16ee-\JJ	.	.	.	.	.	.	.	.	.	.	.	.	.
=54	=54	=54	=54	=54	=54	=54	=54	=54	=54	=54	=54	=54	=54	=54	=54
8DD-/	2.DD-\	16ff\LL	.	4.A-\	-gań-	.	(>4.d-\)	-ga-	.	4A-/	.	.	4.f/	-gań-	.
.	.	16ee-\	.	.	.	.	.	.	.	.	.	.	.	.	.
8AA-/L	.	16dd-\	.	.	.	.	.	.	.	.	.	.	.	.	.
.	.	16cc\	.	.	.	.	.	.	.	.	.	.	.	.	.
8D-/J	.	16b-\	.	.	.	.	.	.	.	2ryy	.	.	.	.	.
.	.	16b--\JJ	.	.	.	.	.	.	.	.	.	.	.	.	.
!LO:TX:t=P:problem:mixed beam	!	!	!	!	!	!	!	!	!	!	!	!	!	!	!
8F/L	.	16a-\LL	.	8A-\	-ce	.	8d-\)	-ńce	.	.	.	.	8a-/	-ce	.
!	!	!LO:N:acc=n-	!	!	!	!	!	!	!	!	!	!	!	!	!
.	.	16b-\	.	.	.	.	.	.	.	.	.	.	.	.	.
8AA-/	.	16cc\	.	8r	.	.	8r	.	.	.	.	.	8r	.	.
.	.	16dd-\	.	.	.	.	.	.	.	.	.	.	.	.	.
!	!	!	!	!LO:TX:a:t=vi=:color=red	!	!	!	!	!	!	!	!	!LO:TX:a:t=vi=:color=red	!	!
8A-\J	.	16ee-\	.	8r	.	.	8r	.	.	.	.	.	8r	.	.
.	.	16ff\JJ	.	.	.	.	.	.	.	.	.	.	.	.	.
*v	*v	*	*	*	*	*	*	*	*	*	*	*	*	*	*
!!LO:PB:g=original
=55!|:	=55!|:	=55!|:	=55!|:	=55!|:	=55!|:	=55!|:	=55!|:	=55!|:	=55!|:	=55!|:	=55!|:	=55!|:	=55!|:	=55!|:
*>D	*>D	*>D	*>D	*>D	*>D	*>D	*>D	*>D	*>D	*>D	*>D	*>D	*>D	*>D
!	!	!	!	!	!	!	!	!	!	!	!	!LO:TX:a:t==de:color=red	!	!
!	!	!	!	!	!	!	!	!	!	!	!	!LO:TX:a:t=P:problem:repeat barline.color=dodgerblue:note=we wszystkich głosach	!	!
8AAA-/	16aa-\LL	.	4A-\	.	.	4e-\	.	.	4g-/	.	.	4cc\	śród	.
.	16gg-\	.	.	.	.	.	.	.	.	.	.	.	.	.
8AA-\L	16ee-\	.	.	.	.	.	.	.	.	.	.	.	.	.
.	16cc\	.	.	.	.	.	.	.	.	.	.	.	.	.
8E-\J	16a-\	.	8A-\	.	.	8e-\	.	.	8g-/	.	.	8cc\	nich	.
.	16an\JJ	.	.	.	.	.	.	.	.	.	.	.	.	.
8A-\L	16b-\LL	.	8A-\	.	.	8d-\	.	.	8g-/	.	.	8b-\	po	.
.	16dd-\	.	.	.	.	.	.	.	.	.	.	.	.	.
8E-\	16cc\	.	8A-\	.	.	8e-\	.	.	8g-/	.	.	8cc\	sa-	.
.	16dd-\	.	.	.	.	.	.	.	.	.	.	.	.	.
8AA-\J	16ee-\	.	8A-\	.	.	8d-\	.	.	8g-/	.	.	8b-\	-fi-	.
.	16dd-\JJ	.	.	.	.	.	.	.	.	.	.	.	.	.
=56	=56	=56	=56	=56	=56	=56	=56	=56	=56	=56	=56	=56	=56	=56
*rep	*	*	*	*	*	*	*	*	*	*	*	*	*	*
8AAA-/	16dd-\LL	.	4.A-\	.	.	4.d-\	.	.	4.g-/	.	.	4.b-\	-ro-	.
.	16ee-\	.	.	.	.	.	.	.	.	.	.	.	.	.
8AA-\L	16ff\	.	.	.	.	.	.	.	.	.	.	.	.	.
.	16gg-\	.	.	.	.	.	.	.	.	.	.	.	.	.
8E-\J	16aa-\	.	.	.	.	.	.	.	.	.	.	.	.	.
.	16bb-\JJ	.	.	.	.	.	.	.	.	.	.	.	.	.
8A-\L	16cc\LL	.	4A-\	.	.	4c\	.	.	4e-/	.	.	4a-\	-wym	.
.	16dd-\	.	.	.	.	.	.	.	.	.	.	.	.	.
8E-\	16ee-\	.	.	.	.	.	.	.	.	.	.	.	.	.
.	16ff\	.	.	.	.	.	.	.	.	.	.	.	.	.
8AA-\J	16gg-\	.	8A-\	.	.	8c\	.	.	8e-/	.	.	8a-\	że-	.
.	16ee-\JJ	.	.	.	.	.	.	.	.	.	.	.	.	.
*Xrep	*	*	*	*	*	*	*	*	*	*	*	*	*	*
=57	=57	=57	=57	=57	=57	=57	=57	=57	=57	=57	=57	=57	=57	=57
*rep	*	*	*	*	*	*	*	*	*	*	*	*	*	*
8AAA-/	16aa-\LL	.	4.A-\	.	.	4.c\	.	.	8r	.	.	4.ee-\	-glu-	.
.	16gg-\	.	.	.	.	.	.	.	.	.	.	.	.	.
8AA-\L	16ee-\	.	.	.	.	.	.	.	4a-\	.	.	.	.	.
.	16cc\	.	.	.	.	.	.	.	.	.	.	.	.	.
8E-\J	16a-\	.	.	.	.	.	.	.	.	.	.	.	.	.
.	16an\JJ	.	.	.	.	.	.	.	.	.	.	.	.	.
!	!	!	!	!	!	!LO:TX:a:t=P:problem:beam.color=dodgerblue	!	!	!	!	!	!	!	!
8A-\L	16b-\LL	.	4E-\	.	.	8B-\L	.	.	4g-/	.	.	8dd-\L	-je	.
.	16dd-\	.	.	.	.	.	.	.	.	.	.	.	.	.
8E-\	16gg-\	.	.	.	.	8c\J	.	.	.	.	.	8ee-\J	.	.
.	16ff\	.	.	.	.	.	.	.	.	.	.	.	.	.
8AA-\J	16ee-\	.	8D-\	.	.	8B-\	.	.	8g-/	.	.	8dd-\	prze-	.
.	16dd-\JJ	.	.	.	.	.	.	.	.	.	.	.	.	.
*Xrep	*	*	*	*	*	*	*	*	*	*	*	*	*	*
=58	=58	=58	=58	=58	=58	=58	=58	=58	=58	=58	=58	=58	=58	=58
*rep	*	*	*	*	*	*	*	*	*	*	*	*	*	*
8AAA-/	16dd-\LL	.	4.E-\	.	.	4.B-\	.	.	4.g-/	.	.	4.dd-\	-stwo-	.
.	16ddd-\	.	.	.	.	.	.	.	.	.	.	.	.	.
8AA-\L	16ccc\	.	.	.	.	.	.	.	.	.	.	.	.	.
.	16bb-\	.	.	.	.	.	.	.	.	.	.	.	.	.
8E-\J	16aa-\	.	.	.	.	.	.	.	.	.	.	.	.	.
.	16bb-\JJ	.	.	.	.	.	.	.	.	.	.	.	.	.
!	!	!	!	!	!	!	!	!	!	!	!	!LO:TX:a:t=P:problem:po tym takcie pusta strona	!	!
8A-\L	16aa-\LL	.	4A-\	.	.	4A-/	.	.	4g-/	.	.	4cc\	-rze	.
.	16gg-\	.	.	.	.	.	.	.	.	.	.	.	.	.
8E-\	16ee-\	.	.	.	.	.	.	.	.	.	.	.	.	.
.	16ddn\	.	.	.	.	.	.	.	.	.	.	.	.	.
!	!	!	!	!	!	!	!	!	!	!	!	!LO:TX:a:t=re=:color=red	!	!
8AA-\J	16ee-\	.	8r	.	.	8r	.	.	8r	.	.	8r	.	.
!	!LO:TX:a:t=re=:color=red:problem:za kreską taktową, na wysokości pięciolinii	!	!	!	!	!	!	!	!	!	!	!	!	!
.	16ff\JJ	.	.	.	.	.	.	.	.	.	.	.	.	.
*Xrep	*	*	*	*	*	*	*	*	*	*	*	*	*	*
!!LO:PB:g=original
=59	=59	=59	=59	=59	=59	=59	=59	=59	=59	=59	=59	=59	=59	=59
*^	*	*	*	*	*	*	*	*	*	*	*	*	*	*
8AA-/L	4.AA-\	16gg-\LL	.	4A-\	.	.	4c\	.	.	4a-/	.	.	4cc\	Je-	.
.	.	16aa-\	.	.	.	.	.	.	.	.	.	.	.	.	.
8E-/	.	16gg-\	.	.	.	.	.	.	.	.	.	.	.	.	.
.	.	16ff\	.	.	.	.	.	.	.	.	.	.	.	.	.
!	!	!	!	!	!	!	!	!	!	!	!	!	!	!	!LO:DY:a
8A-/J	.	16ee-\	.	8A-\	.	pp	8c\	.	.	8g-/	.	.	8ee-\	-den	pp
.	.	16ff\JJ	.	.	.	.	.	.	.	.	.	.	.	.	.
!	!	!	!	!	!	!	!	!	!LO:DY:a:rj	!	!	!LO:DY:a:rj	!	!	!
8B--/L	4.BB--\	16gg-\LL	.	(4.B--^\	.	.	(4.d-^\	.	pp	[4.g-^/	.	pp	[4.gg-\ [>4.ee-^\	o-	.
.	.	16ff\	.	.	.	.	.	.	.	.	.	.	.	.	.
8E-/	.	16ee-\	.	.	.	.	.	.	.	.	.	.	.	.	.
.	.	16ddn\	.	.	.	.	.	.	.	.	.	.	.	.	.
8BB--/J	.	16ee-\	.	.	.	.	.	.	.	.	.	.	.	.	.
.	.	16ff\JJ	.	.	.	.	.	.	.	.	.	.	.	.	.
=60	=60	=60	=60	=60	=60	=60	=60	=60	=60	=60	=60	=60	=60	=60	=60
*	*	*	*	*	*	*	*	*	*	*	*	*	*^	*	*
*rep	*rep	*	*	*	*	*	*	*	*	*	*	*	*	*	*	*
8AA-/L	4.AA-\	16gg-\LL	.	4A-\)	.	.	4c\)	.	.	4g-/]	.	.	4gg-\] 4ee-\]	4ryy	.	.
.	.	16aa-\	.	.	.	.	.	.	.	.	.	.	.	.	.	.
8E-/	.	16bb--\	.	.	.	.	.	.	.	.	.	.	.	.	.	.
.	.	16gg-\	.	.	.	.	.	.	.	.	.	.	.	.	.	.
8A-/J	.	16ee-\	.	8A-\	.	.	8c\	.	.	8g-/	.	.	8ee-/	8ee-\	-błok	.
.	.	16cc\JJ	.	.	.	.	.	.	.	.	.	.	.	.	.	.
!	!	!LO:TUP:a	!	!	!	!	!	!	!	!	!	!	!	!	!	!
8B--/L	4.BB--\	24dd-\LL	.	4.B--^\	.	.	4.d-\	.	.	4.g-^/	.	.	(4.gg-\ 4.ee-^\	4.ryy	jak	.
.	.	24ee-\	.	.	.	.	.	.	.	.	.	.	.	.	.	.
.	.	24dd-\JJ	.	.	.	.	.	.	.	.	.	.	.	.	.	.
8E-/	.	16cc\LL	.	.	.	.	.	.	.	.	.	.	.	.	.	.
.	.	16dd-\	.	.	.	.	.	.	.	.	.	.	.	.	.	.
8BB--/J	.	16ee-\	.	.	.	.	.	.	.	.	.	.	.	.	.	.
.	.	16ff\JJ	.	.	.	.	.	.	.	.	.	.	.	.	.	.
*Xrep	*Xrep	*	*	*	*	*	*	*	*	*	*	*	*	*	*	*
*	*	*	*	*	*	*	*	*	*	*	*	*	*v	*v	*	*
=61	=61	=61	=61	=61	=61	=61	=61	=61	=61	=61	=61	=61	=61	=61	=61
!	!	!	!	!	!	!	!	!	!	!	!	!	!LO:TX:a:t=P:problem:łuk kończy się na kresce taktowej	!	!
8AA-/L	4.AA-\	16gg-\LL	.	4A-\	.	.	4e-\	.	.	4g-/	.	.	4cc\)	sen-	.
.	.	16ff\	.	.	.	.	.	.	.	.	.	.	.	.	.
8E-/	.	16aa-\	.	.	.	.	.	.	.	.	.	.	.	.	.
.	.	16gg-\	.	.	.	.	.	.	.	.	.	.	.	.	.
8A-/J	.	16gg-\	.	8AA-/	.	.	8e-\	.	.	8g-/	.	.	8cc\	-ny	.
.	.	16ff\	.	.	.	.	.	.	.	.	.	.	.	.	.
8BB--/L	4.BB--\	16aa-\	.	4BB--/	.	.	4e-\	.	.	4g-/	.	.	4dd-\	ła-	.
.	.	16gg-\	.	.	.	.	.	.	.	.	.	.	.	.	.
8E-/	.	16gg-\	.	.	.	.	.	.	.	.	.	.	.	.	.
.	.	16ff\	.	.	.	.	.	.	.	.	.	.	.	.	.
8B--/J	.	16aa-\	.	8BB--/	.	.	8e-\	.	.	8g-/	.	.	8dd-\	-będź	.
.	.	16gg-\JJ	.	.	.	.	.	.	.	.	.	.	.	.	.
=62	=62	=62	=62	=62	=62	=62	=62	=62	=62	=62	=62	=62	=62	=62	=62
!LO:N:acc=n-	!LO:N:acc=n-	!	!	!LO:N:acc=n-	!	!	!	!	!	!	!	!	!	!	!
!LO:TX:b:rj:t=7:color=blue	!	!	!	!	!	!	!	!	!	!	!	!	!	!	!
8BB-/L	4.BB-X\	16gg-\LL	.	4BB-X/	.	.	4e-\	.	.	4g-/	.	.	4ddn\	na	.
.	.	16ff\	.	.	.	.	.	.	.	.	.	.	.	.	.
8E-/	.	16aa-\	.	.	.	.	.	.	.	.	.	.	.	.	.
.	.	16gg-\	.	.	.	.	.	.	.	.	.	.	.	.	.
!LO:N:acc=n-	!	!	!	!	!	!	!	!	!	!	!	!	!	!	!
8B-X/J	.	16gg-\	.	8BB-/	.	.	8e-\	.	.	8g-/	.	.	8dd\	je-	.
.	.	16ggn\	.	.	.	.	.	.	.	.	.	.	.	.	.
8C-X/L	4.C-\	16bb-\	.	4C-X/	.	.	(4e-\	.	.	4g-/	.	.	(4ee-\	-zio-	.
.	.	16aa-\	.	.	.	.	.	.	.	.	.	.	.	.	.
8E-/	.	16aa-\	.	.	.	.	.	.	.	.	.	.	.	.	.
.	.	16gg\	.	.	.	.	.	.	.	.	.	.	.	.	.
8A-/J	.	16bb-\	.	8C-/	.	.	8A-/)	.	.	8g-/	.	.	8a-/)	-rze,	.
.	.	16aa-\JJ	.	.	.	.	.	.	.	.	.	.	.	.	.
=63	=63	=63	=63	=63	=63	=63	=63	=63	=63	=63	=63	=63	=63	=63	=63
8C/L	4.Cn\	16aa-\LL	.	4.C/	.	.	[4.A-/	.	.	4.e-/	.	.	[4.a-/	sen-	.
.	.	16ggn\	.	.	.	.	.	.	.	.	.	.	.	.	.
8E-/	.	16bb-\	.	.	.	.	.	.	.	.	.	.	.	.	.
.	.	16aa-\	.	.	.	.	.	.	.	.	.	.	.	.	.
8A-/J	.	16aa-\	.	.	.	.	.	.	.	.	.	.	.	.	.
.	.	16gg\	.	.	.	.	.	.	.	.	.	.	.	.	.
!	!LO:TX:a:t=P:problem:bardzo krótka cauda	!	!	!	!	!	!	!	!	!	!	!	!	!	!
8D-/L	4.D-\	16bb-\	.	4.D-/	.	.	4A-/]	.	.	4.f/	.	.	4a-/	.	.
.	.	16aa-\	.	.	.	.	.	.	.	.	.	.	.	.	.
8F/	.	16aa-\	.	.	.	.	.	.	.	.	.	.	.	.	.
.	.	16bb-\	.	.	.	.	.	.	.	.	.	.	.	.	.
8A-/J	.	16ddd-\	.	.	.	.	8A-/	.	.	.	.	.	8a-/	-ny	.
.	.	16ccc\JJ	.	.	.	.	.	.	.	.	.	.	.	.	.
=64	=64	=64	=64	=64	=64	=64	=64	=64	=64	=64	=64	=64	=64	=64	=64
8E-/L	4.E-\	16ccc\LL	.	4.E-\	.	.	4.c\	.	.	4.g-/	.	.	4.a-/	ła-	.
.	.	16ggg-\	.	.	.	.	.	.	.	.	.	.	.	.	.
8A-/	.	16fff\	.	.	.	.	.	.	.	.	.	.	.	.	.
.	.	16eee-\	.	.	.	.	.	.	.	.	.	.	.	.	.
8G-/J	.	16ddd-\	.	.	.	.	.	.	.	.	.	.	.	.	.
.	.	16ccc\JJ	.	.	.	.	.	.	.	.	.	.	.	.	.
8F/L	4.F\	16ddd-\LL	.	4.F\	.	.	4.d-\	.	.	4.a-/	.	.	4a-/	-będź	.
.	.	16ccc\	.	.	.	.	.	.	.	.	.	.	.	.	.
8A-/	.	16bb-\	.	.	.	.	.	.	.	.	.	.	.	.	.
.	.	16aa-\	.	.	.	.	.	.	.	.	.	.	.	.	.
8d-/J	.	16ggn\	.	.	.	.	.	.	.	.	.	.	8r	.	.
.	.	16aa-\JJ	.	.	.	.	.	.	.	.	.	.	.	.	.
!!LO:LB:g=original
=65	=65	=65	=65	=65	=65	=65	=65	=65	=65	=65	=65	=65	=65	=65	=65
8G-/L	4.G-\	16bb-\LL	.	4.G-\	.	.	[>4.d-\	.	.	4.g-/	.	.	4.b-\	na	.
.	.	16aa-X\	.	.	.	.	.	.	.	.	.	.	.	.	.
8B-/	.	16gg-\	.	.	.	.	.	.	.	.	.	.	.	.	.
.	.	16ff\	.	.	.	.	.	.	.	.	.	.	.	.	.
8d-/J	.	16ee-\	.	.	.	.	.	.	.	.	.	.	.	.	.
.	.	16dd-\JJ	.	.	.	.	.	.	.	.	.	.	.	.	.
8A-/L	4A-\	16ff\LL	.	4.A-\	.	.	4d-\]	.	.	4.f/	.	.	4.cc-X\	je-	.
.	.	16ee-\	.	.	.	.	.	.	.	.	.	.	.	.	.
8c-X/	.	16dd-\	.	.	.	.	.	.	.	.	.	.	.	.	.
.	.	16cc-X\	.	.	.	.	.	.	.	.	.	.	.	.	.
8d-/J	8ryy	16b-\	.	.	.	.	8d-\	.	.	.	.	.	.	.	.
.	.	16a-\JJ	.	.	.	.	.	.	.	.	.	.	.	.	.
=66	=66	=66	=66	=66	=66	=66	=66	=66	=66	=66	=66	=66	=66	=66	=66
8An/L	4.A\	16g-X/LL	.	4.An\	.	.	4.e-\	.	.	4.e-/	.	.	4.ccn\	-zio-	.
.	.	16b--/	.	.	.	.	.	.	.	.	.	.	.	.	.
8cn/	.	16cc/	.	.	.	.	.	.	.	.	.	.	.	.	.
.	.	16ee-/	.	.	.	.	.	.	.	.	.	.	.	.	.
8e-/J	.	16gg-X/	.	.	.	.	.	.	.	.	.	.	.	.	.
.	.	16ffn/JJ	.	.	.	.	.	.	.	.	.	.	.	.	.
!	!	!	!	!LO:N:vis=4	!	!	!	!	!	!	!	!	!	!	!
8B-/L	4.B-\	16gg-\LL	.	4.B-\	.	.	4.d-\	.	.	4.g-/	.	.	4.dd-\	-rze	.
.	.	16bb-\	.	.	.	.	.	.	.	.	.	.	.	.	.
8d-/	.	16aa-\	.	.	.	.	.	.	.	.	.	.	.	.	.
.	.	16gg-\	.	.	.	.	.	.	.	.	.	.	.	.	.
8B-/J	.	16ff\	.	.	.	.	.	.	.	.	.	.	.	.	.
.	.	16gg-\JJ	.	.	.	.	.	.	.	.	.	.	.	.	.
*v	*v	*	*	*	*	*	*	*	*	*	*	*	*	*	*
=67	=67	=67	=67	=67	=67	=67	=67	=67	=67	=67	=67	=67	=67	=67
(8c-X\L 8C-X\	16ee-\LL	.	4.c-X\	pierś	.	4e-\	.	.	4g-/	.	.	4ee-\	pierś	.
.	16ff\	.	.	.	.	.	.	.	.	.	.	.	.	.
8G-\	16aa-\	.	.	.	.	.	.	.	.	.	.	.	.	.
.	16gg-\	.	.	.	.	.	.	.	.	.	.	.	.	.
8e-\J)	16ff\	.	.	.	.	8e-\	.	.	8g-/	.	.	8ee-\	ma	.
.	16gg-\JJ	.	.	.	.	.	.	.	.	.	.	.	.	.
(8cn\L 8Cn\	16aa-\LL	.	4.cn\	ma	.	4e-\	.	.	8a-/L	.	.	4ee-\	bia-	.
.	16gg-\	.	.	.	.	.	.	.	.	.	.	.	.	.
8A-\	16bb-\	.	.	.	.	.	.	.	8gn/J	.	.	.	.	.
.	16aa-\	.	.	.	.	.	.	.	.	.	.	.	.	.
8e-\J)	16ee-\	.	.	.	.	8A-/	.	.	8g-X/	.	.	8a-/	-łą,	.
.	16gg-\JJ	.	.	.	.	.	.	.	.	.	.	.	.	.
=68	=68	=68	=68	=68	=68	=68	=68	=68	=68	=68	=68	=68	=68	=68
*^	*	*	*	*	*	*	*	*	*	*	*	*	*	*
8d-\L 8D-\	4.ryy	16ff\LL	.	4.d-\	bia-	.	4.f\	.	.	4.f/	.	.	4.a-/	a	.
.	.	16aa-\	.	.	.	.	.	.	.	.	.	.	.	.	.
16e-\L	.	16gg-\	.	.	.	.	.	.	.	.	.	.	.	.	.
16d-\	.	16ff\	.	.	.	.	.	.	.	.	.	.	.	.	.
16c\	.	16ee-\	.	.	.	.	.	.	.	.	.	.	.	.	.
16c-X\JJ	.	16ff\JJ	.	.	.	.	.	.	.	.	.	.	.	.	.
8B-/L	4G-\	16gg-\LL	.	4.G-\	-łą,	.	4B-\	.	.	4e-/	.	.	4a-/	zło-	.
.	.	16ddd-\	.	.	.	.	.	.	.	.	.	.	.	.	.
8A-/	.	16ccc\	.	.	.	.	.	.	.	.	.	.	.	.	.
.	.	16bb-\	.	.	.	.	.	.	.	.	.	.	.	.	.
8B-/J	8E-\	16aa-\	.	.	.	.	8B-\	.	.	8e-/	.	.	8g-/	-tem	.
.	.	16gg-\JJ	.	.	.	.	.	.	.	.	.	.	.	.	.
*v	*v	*	*	*	*	*	*	*	*	*	*	*	*	*	*
=69	=69	=69	=69	=69	=69	=69	=69	=69	=69	=69	=69	=69	=69	=69
8A-\ 8AA-\	16ff\LL	.	8A-\L	.	.	4A-/	.	.	8d-/L	.	.	8f/L	.	.
.	16ee-\	.	.	.	.	.	.	.	.	.	.	.	.	.
(8F\L	16dd-\	.	8F\J	.	.	.	.	.	8f/J	.	.	8a-/J	.	.
.	16cc\	.	.	.	.	.	.	.	.	.	.	.	.	.
8d-\J)	16b-\	.	8D-\	.	.	8A-/	.	.	8a-/	.	.	8a-/	.	.
.	16a-\JJ	.	.	.	.	.	.	.	.	.	.	.	.	.
8A-\ 8AA-\	16cc/LL	.	4AA-/	.	.	4A-/	.	.	4a-/	.	.	4a-/	.	.
.	16b-/	.	.	.	.	.	.	.	.	.	.	.	.	.
8c\L	16a-/	.	.	.	.	.	.	.	.	.	.	.	.	.
.	16g-/	.	.	.	.	.	.	.	.	.	.	.	.	.
8A-\J	16f/	.	8AA-/	.	.	8A-/	.	.	8e-/	.	.	8e-/	.	.
.	16e-/JJ	.	.	.	.	.	.	.	.	.	.	.	.	.
=70	=70	=70	=70	=70	=70	=70	=70	=70	=70	=70	=70	=70	=70	=70
!!LO:TX:a:t=1.ma
*>D1	*>D1	*>D1	*>D1	*>D1	*>D1	*>D1	*>D1	*>D1	*>D1	*>D1	*>D1	*>D1	*>D1	*>D1
8D-\	16f/LL	.	4.D-\	.	.	4.A-/	.	.	4.d-/	.	.	4.f/	.	.
.	16a-/	.	.	.	.	.	.	.	.	.	.	.	.	.
8d-\L	16b-/	.	.	.	.	.	.	.	.	.	.	.	.	.
.	16cc/	.	.	.	.	.	.	.	.	.	.	.	.	.
8A-\J	16dd-/	.	.	.	.	.	.	.	.	.	.	.	.	.
.	16ee-/JJ	.	.	.	.	.	.	.	.	.	.	.	.	.
8D-\L	16een\LL	.	8A-\	.	.	8A-/	.	.	8A-/	.	.	8a-/	.	.
.	16ff\	.	.	.	.	.	.	.	.	.	.	.	.	.
8A-\	16gg-\	.	8r	.	.	8r	.	.	8r	.	.	8r	.	.
.	16ggn\	.	.	.	.	.	.	.	.	.	.	.	.	.
8d-\J	16bb-\	.	8r	.	.	8r	.	.	8r	.	.	8r	.	.
.	16aa-\JJ	.	.	.	.	.	.	.	.	.	.	.	.	.
!!LO:PB:g=original
=71:|!	=71:|!	=71:|!	=71:|!	=71:|!	=71:|!	=71:|!	=71:|!	=71:|!	=71:|!	=71:|!	=71:|!	=71:|!	=71:|!	=71:|!
!!LO:TX:a:t=2da
*>D2	*>D2	*>D2	*>D2	*>D2	*>D2	*>D2	*>D2	*>D2	*>D2	*>D2	*>D2	*>D2	*>D2	*>D2
*	*^	*	*	*	*	*	*	*	*	*	*	*	*	*
!	!	!	!	!	!	!	!	!	!	!	!	!	!LO:N:vis=xstem	!	!
!	!	!	!	!	!	!	!	!	!	!	!	!	!LO:TX:a:t=P:problem:przy nucie powinna być widoczna kropka	!	!
!	!	!	!	!	!	!	!	!	!	!	!	!	!LO:TX:a:t=P:problem:"2da".color=dodgerblue:note=napisane bardzo lekko	!	!
8D-\	(16f\LL	2.d-/	.	[2.D-\	.	.	[2.A-/	kra-	.	[4.d-/	.	.	[4.f/	kra-	.
.	16g-\	.	.	.	.	.	.	.	.	.	.	.	.	.	.
!LO:TX:t=P:problem:mixed beam	!	!	!	!	!	!	!	!	!	!	!	!	!	!	!
8A-\L	16b-\	.	.	.	.	.	.	.	.	.	.	.	.	.	.
.	16a-\	.	.	.	.	.	.	.	.	.	.	.	.	.	.
8AA-/J	16g-\	.	.	.	.	.	.	.	.	.	.	.	.	.	.
.	16f\JJ	.	.	.	.	.	.	.	.	.	.	.	.	.	.
!	!LO:TX:t=P:problem:mixed beam	!	!	!	!	!	!	!	!	!	!	!	!LO:TX:a:t=P:problem:bardzo krótka cauda	!	!
8DD-/L	16e-\LL	.	.	.	.	.	.	.	.	4d-/]	.	.	4f/]	.	.
.	16d-\	.	.	.	.	.	.	.	.	.	.	.	.	.	.
8AA-/	16c\	.	.	.	.	.	.	.	.	.	.	.	.	.	.
.	16B-\	.	.	.	.	.	.	.	.	.	.	.	.	.	.
8D-/J	16A-</	.	.	.	.	.	.	.	.	8d-/	.	.	8f/	-ńce	.
.	16f\JJ)	.	.	.	.	.	.	.	.	.	.	.	.	.	.
=72	=72	=72	=72	=72	=72	=72	=72	=72	=72	=72	=72	=72	=72	=72	=72
*>E	*>E	*>E	*>E	*>E	*>E	*>E	*>E	*>E	*>E	*>E	*>E	*>E	*>E	*>E	*>E
!	!LO:TX:b:t=a = pag.3	!	!	!	!	!	!	!	!	!	!	!	!	!	!
!	!LO:TX:t=P:problem:powtórka taktów 36-42	!	!	!	!	!	!	!	!	!	!	!	!	!	!
!LO:TX:t=P:problem:powtórka taktów 36-42	!	!	!	!	!	!	!	!	!	!	!	!	!	!	!
*rep	*rep	*rep	*	*	*	*	*	*	*	*	*	*	*	*	*
8DD-/L	16dd-/LL	2.f\	.	4.D-\_	.	.	4.A-/_	.	.	4d-/	.	.	4f/	ma-	.
.	16ee-/	.	.	.	.	.	.	.	.	.	.	.	.	.	.
8AA-/	16gg-/	.	.	.	.	.	.	.	.	.	.	.	.	.	.
.	16ff/	.	.	.	.	.	.	.	.	.	.	.	.	.	.
8D-/J	16ee-/	.	.	.	.	.	.	.	.	8d-/	.	.	8f/	-lo-	.
.	16dd-/JJ	.	.	.	.	.	.	.	.	.	.	.	.	.	.
8DD-/L	16cc/LL	.	.	4D-\]	.	.	4A-/]	.	.	4d-/	.	.	4f/	-wa-	.
.	16b-/	.	.	.	.	.	.	.	.	.	.	.	.	.	.
8AA-/	16a-/	.	.	.	.	.	.	.	.	.	.	.	.	.	.
.	16g-/	.	.	.	.	.	.	.	.	.	.	.	.	.	.
8D-/J	16f/	.	.	8D-\	.	.	8A-/	-ńce	.	8d-/	.	.	8f/	-ne	.
.	16dd-/JJ	.	.	.	.	.	.	.	.	.	.	.	.	.	.
*Xrep	*Xrep	*Xrep	*	*	*	*	*	*	*	*	*	*	*	*	*
=73	=73	=73	=73	=73	=73	=73	=73	=73	=73	=73	=73	=73	=73	=73	=73
*rep	*rep	*rep	*	*	*	*	*	*	*	*	*	*	*	*	*
8DD-/L	2.dd-/	(>16f\LL	.	4D-\	.	.	4A-/	zło-	.	[4.d-/	.	.	[4.f/	kra-	.
.	.	16g-\	.	.	.	.	.	.	.	.	.	.	.	.	.
8AA-/	.	16b-\	.	.	.	.	.	.	.	.	.	.	.	.	.
.	.	16a-\	.	.	.	.	.	.	.	.	.	.	.	.	.
8D-/J	.	16g-\	.	8D-\	.	.	8A-/	-tem	.	.	.	.	.	.	.
.	.	16f\JJ	.	.	.	.	.	.	.	.	.	.	.	.	.
8DD-/L	.	16e-\LL	.	4D-\	.	.	4A-/	ma-	.	4d-/]	.	.	4f/]	.	.
.	.	16d-\	.	.	.	.	.	.	.	.	.	.	.	.	.
8AA-/	.	16c\	.	.	.	.	.	.	.	.	.	.	.	.	.
.	.	16B-\	.	.	.	.	.	.	.	.	.	.	.	.	.
8D-/J	.	16A-\	.	8D-\	.	.	8A-/	-lo-	.	8d-/	.	.	8f/	-ńce	.
.	.	16f\JJ)	.	.	.	.	.	.	.	.	.	.	.	.	.
*Xrep	*Xrep	*Xrep	*	*	*	*	*	*	*	*	*	*	*	*	*
=74	=74	=74	=74	=74	=74	=74	=74	=74	=74	=74	=74	=74	=74	=74	=74
*rep	*rep	*rep	*	*	*	*	*	*	*	*	*	*	*	*	*
8DD-/L	(16a-/LL	4.f\	.	[4.D-\	.	.	4.A-/	-wa-	.	4d-/	.	.	4f/	ma-	.
.	16b-/	.	.	.	.	.	.	.	.	.	.	.	.	.	.
8AA-/	16dd-/	.	.	.	.	.	.	.	.	.	.	.	.	.	.
.	16cc-X/	.	.	.	.	.	.	.	.	.	.	.	.	.	.
8D-/J	16b-/	.	.	.	.	.	.	.	.	8d-/	.	.	8f/	-lo-	.
.	16a-/JJ	.	.	.	.	.	.	.	.	.	.	.	.	.	.
8DD-/	16g-/LL	4ryy	.	4D-\]	.	.	4A-/	.	.	4d-/	.	.	4f/	-wa-	.
.	16f/	.	.	.	.	.	.	.	.	.	.	.	.	.	.
!LO:TX:t=P:problem:mixed beam	!	!	!	!	!	!	!	!	!	!	!	!	!	!	!
8D-\L	16e-/	.	.	.	.	.	.	.	.	.	.	.	.	.	.
.	16d-/	.	.	.	.	.	.	.	.	.	.	.	.	.	.
8AA-/J	16c-X/	8c-\	.	8D-\	.	.	8A-/	-ne	.	8d-/	.	.	8f/	-ne	.
.	16a-/JJ)	.	.	.	.	.	.	.	.	.	.	.	.	.	.
*Xrep	*Xrep	*Xrep	*	*	*	*	*	*	*	*	*	*	*	*	*
=75	=75	=75	=75	=75	=75	=75	=75	=75	=75	=75	=75	=75	=75	=75	=75
*rep	*rep	*rep	*	*	*	*	*	*	*	*	*	*	*	*	*
*	*ped	*	*	*	*	*	*	*	*	*	*	*	*	*	*
16D-\LL	8rgg	[>4.a-\ [4.c-X\	.	([2.D-\	.	.	[2.A-/	.	.	(>4.c-X/	.	.	(>4.a-/	kra-	.
16E-\	.	.	.	.	.	.	.	.	.	.	.	.	.	.	.
16F\	8rgg	.	.	.	.	.	.	.	.	.	.	.	.	.	.
16E-\	.	.	.	.	.	.	.	.	.	.	.	.	.	.	.
16D-\	(<16dd-/LL	.	.	.	.	.	.	.	.	.	.	.	.	.	.
16AA-\JJ	16ddd-/JJ)	.	.	.	.	.	.	.	.	.	.	.	.	.	.
16D-\LL	[4.ddd-/ [4.dd-/	4a-\] 4c-\]	.	.	.	.	.	.	.	4.d-/	.	.	4.f/	.	.
16E-\	.	.	.	.	.	.	.	.	.	.	.	.	.	.	.
16F\	.	.	.	.	.	.	.	.	.	.	.	.	.	.	.
16E-\	.	.	.	.	.	.	.	.	.	.	.	.	.	.	.
16D-\	.	(>16c-\LL	.	.	.	.	.	.	.	.	.	.	.	.	.
16AA-\JJ	.	16a-\JJ)	.	.	.	.	.	.	.	.	.	.	.	.	.
*Xrep	*Xrep	*Xrep	*	*	*	*	*	*	*	*	*	*	*	*	*
=76	=76	=76	=76	=76	=76	=76	=76	=76	=76	=76	=76	=76	=76	=76	=76
*rep	*rep	*rep	*	*	*	*	*	*	*	*	*	*	*	*	*
16D-\LL	4ddd-/] 4dd-/]	[>4.a-\ [4.c\	.	4.D-\]	.	.	2.A-/]	.	.	4.c-X/	.	.	4.a-/	.	.
16E-\	.	.	.	.	.	.	.	.	.	.	.	.	.	.	.
16F\	.	.	.	.	.	.	.	.	.	.	.	.	.	.	.
16E-\	.	.	.	.	.	.	.	.	.	.	.	.	.	.	.
16D-\	(16dd-/LL	.	.	.	.	.	.	.	.	.	.	.	.	.	.
16AA-\JJ	16ddd-/JJ)	.	.	.	.	.	.	.	.	.	.	.	.	.	.
16D-\LL	4.ddd-/ 4.dd-/	4a-\] 4c\]	.	4.E-\)	.	.	.	.	.	4.cn/)	.	.	4.g-/	.	.
16E-\	.	.	.	.	.	.	.	.	.	.	.	.	.	.	.
16F\	.	.	.	.	.	.	.	.	.	.	.	.	.	.	.
16E-\	.	.	.	.	.	.	.	.	.	.	.	.	.	.	.
16D-\	.	(>16c\LL	.	.	.	.	.	.	.	.	.	.	.	.	.
16AA-\JJ	.	16a-\JJ)	.	.	.	.	.	.	.	.	.	.	.	.	.
*Xrep	*Xrep	*Xrep	*	*	*	*	*	*	*	*	*	*	*	*	*
=77	=77	=77	=77	=77	=77	=77	=77	=77	=77	=77	=77	=77	=77	=77	=77
*rep	*rep	*rep	*	*	*	*	*	*	*	*	*	*	*	*	*
!	!	!	!	!	!	!	!	!	!	!	!	!	!LO:TX:a:t=P:problem:łuk kończy się przed kreską taktową	!	!
(16D-/LL 16DD-/	8ddd-/ 8dd-/	4.a-\ 4.c\	.	(2.D-\	.	.	[<2.A-/	.	.	[<2.d-/	.	.	[2.f/)	-ńce.	.
16F/	.	.	.	.	.	.	.	.	.	.	.	.	.	.	.
16A-/	8r	.	.	.	.	.	.	.	.	.	.	.	.	.	.
16F/	.	.	.	.	.	.	.	.	.	.	.	.	.	.	.
16D-/	(<16dd-/LL	.	.	.	.	.	.	.	.	.	.	.	.	.	.
16C/JJ	16ddd-/JJ)	.	.	.	.	.	.	.	.	.	.	.	.	.	.
16C-X/LL	8rgg	4.f\ 4.d-\	.	.	.	.	.	.	.	.	.	.	.	.	.
16D-/	.	.	.	.	.	.	.	.	.	.	.	.	.	.	.
16F/	8rgg	.	.	.	.	.	.	.	.	.	.	.	.	.	.
16D-/	.	.	.	.	.	.	.	.	.	.	.	.	.	.	.
16C-/	(<16a-/LL	.	.	.	.	.	.	.	.	.	.	.	.	.	.
16BB-/JJ	16aa-/JJ)	.	.	.	.	.	.	.	.	.	.	.	.	.	.
*Xrep	*Xrep	*Xrep	*	*	*	*	*	*	*	*	*	*	*	*	*
!!LO:LB:g=original
=78	=78	=78	=78	=78	=78	=78	=78	=78	=78	=78	=78	=78	=78	=78	=78
*^	*	*	*	*	*	*	*	*	*	*	*	*	*	*	*
*rep	*rep	*rep	*rep	*	*	*	*	*	*	*	*	*	*	*	*	*
16AA-/LL	4.DD-\	8rgg	4.a-\ 4.c-X\	.	4D-\)	.	.	4A-/]	.	.	4d-/]	.	.	4f/]	.	.
16C-X/	.	.	.	.	.	.	.	.	.	.	.	.	.	.	.	.
16D-/	.	8rgg	.	.	.	.	.	.	.	.	.	.	.	.	.	.
16C-/	.	.	.	.	.	.	.	.	.	.	.	.	.	.	.	.
16AA-/	.	(<16dd-/LL	.	.	8r	.	.	8r	.	.	8r	.	.	8r	.	.
16FF/JJ	.	16ddd-/JJ)	.	.	.	.	.	.	.	.	.	.	.	.	.	.
16EE-/LL	4.DD-\	8rgg	4.g-\ 4.cn\	.	4r	.	.	4r	.	.	4r	.	.	4r	.	.
16AA-/	.	.	.	.	.	.	.	.	.	.	.	.	.	.	.	.
16E-/	.	8rgg	.	.	.	.	.	.	.	.	.	.	.	.	.	.
16AA-/	.	.	.	.	.	.	.	.	.	.	.	.	.	.	.	.
16E-/)	.	(<16a-/LL	.	.	8r	.	.	8r	.	.	8r	.	.	8r	.	.
16AA-/JJ	.	16aa-/JJ)	.	.	.	.	.	.	.	.	.	.	.	.	.	.
*Xrep	*Xrep	*Xrep	*Xrep	*	*	*	*	*	*	*	*	*	*	*	*	*
*v	*v	*	*	*	*	*	*	*	*	*	*	*	*	*	*	*
*	*v	*v	*	*	*	*	*	*	*	*	*	*	*	*	*
=79	=79	=79	=79	=79	=79	=79	=79	=79	=79	=79	=79	=79	=79	=79
2.DD-;/	2.ff\ 2.dd-\ 2.a-\ 2.f;\	.	2.r;	.	.	2.r;	.	.	2.r;	.	.	2.r;	.	.
==	==	==	==	==	==	==	==	==	==	==	==	==	==	==
*-	*-	*-	*-	*-	*-	*-	*-	*-	*-	*-	*-	*-	*-	*-
!!!system-decoration: [(s1,s2,s3,s4){(s5,s6)}]
!!!RDF**kern: @ = marked note, color=dodgerblue
!!!RDF**kern: < = below
!!!RDF**kern: > = above
!!!RDF**kern: | = vertical stroke
!!!RDF**kern: N = linked
!!!ENC: Andrzej Gręziak
!!!END: 2021-08-18
!!!ENC: Zofia Niedbalska
!!!END: 2022-05-21
